; generated by PrusaSlicer 2.7.0+MacOS-arm64 on 2023-12-05 at 12:23:07 UTC


;
;
; 

; external perimeters extrusion width = 0.60mm
; perimeters extrusion width = 0.50mm
; infill extrusion width = 0.50mm
; solid infill extrusion width = 0.50mm
; top infill extrusion width = 0.45mm
; first layer extrusion width = 0.42mm

M73 P0 R122
M73 Q0 S122
M201 X1000 Y1000 Z200 E5000 ; sets maximum accelerations, mm/sec^2
M203 X200 Y200 Z12 E120 ; sets maximum feedrates, mm / sec
M204 S1250 T1250 ; sets acceleration (S) and retract acceleration (R), mm/sec^2
M205 X8.00 Y8.00 Z0.40 E4.50 ; sets the jerk limits, mm/sec
M205 S0 T0 ; sets the minimum extruding and travel feed rate, mm/sec

; printing object Ergodonk Zero v0.1 plates v8.stl id:0 copy 0
; stop printing object Ergodonk Zero v0.1 plates v8.stl id:0 copy 0

;TYPE:Custom
M862.3 P "MK3S" ; printer model check
M862.1 P0.4 ; nozzle diameter check
M115 U3.12.2 ; tell printer latest fw version
G90 ; use absolute coordinates
M83 ; extruder relative mode
M104 S215 ; set extruder temp
M140 S60 ; set bed temp
M190 S60 ; wait for bed temp
M109 S215 ; wait for extruder temp
G28 W ; home all without mesh bed level
G80 ; mesh bed leveling

G1 Z0.2 F720
G1 Y-3 F1000 ; go outside print area
G92 E0
G1 X60 E9 F1000 ; intro line
G1 X100 E12.5 F1000 ; intro line
M73 P0 R121

G92 E0
M221 S95

; Don't change E values below. Excessive value can damage the printer.

M907 E538 ; set extruder motor current
G21 ; set units to millimeters
G90 ; use absolute coordinates
M83 ; use relative distances for extrusion
M900 K0.05 ; Filament gcode LA 1.5
M900 K30 ; Filament gcode LA 1.0
M107
;LAYER_CHANGE
;Z:0.2
;HEIGHT:0.2
;BEFORE_LAYER_CHANGE
G92 E0.0
;0.2


G1 E-.8 F2100
G1 Z.2 F720
;AFTER_LAYER_CHANGE
;0.2
G1 X40.265 Y30.035 F10800
G1 Z.2 F720
G1 E.8 F2100
M204 S800
;TYPE:Skirt/Brim
;WIDTH:0.42
G1 F1200
G1 X42.852 Y26.567 E.13566
G1 X43.347 Y26.019 E.02315
G1 X44.158 Y25.41 E.0318
G1 X44.651 Y25.162 E.0173
G1 X45.624 Y24.876 E.0318
G1 X46.361 Y24.807 E.02321
G1 X209.514 Y24.824 E5.11555
G1 X210.558 Y25.023 E.03332
G1 X211.523 Y25.468 E.03332
G1 X212.352 Y26.133 E.03332
G1 X212.849 Y26.729 E.02433
G1 X234.898 Y59.279 E1.23269
G1 X235.391 Y60.263 E.03451
G1 X235.6 Y61.104 E.02717
G1 X235.651 Y61.733 E.01979
G1 X235.637 Y124.585 E1.97068
G1 X227.659 Y181.432 E1.79987
G1 X227.495 Y182.127 E.02239
G1 X227.1 Y183.024 E.03073
G1 X226.803 Y183.468 E.01675
G1 X226.126 Y184.177 E.03074
G1 X225.308 Y184.717 E.03073
G1 X224.39 Y185.061 E.03074
G1 X223.419 Y185.192 E.03072
G1 X222.781 Y185.166 E.02002
G1 X46.867 Y165.838 E5.54885
G1 X46.215 Y165.716 E.0208
G1 X45.299 Y165.367 E.03073
G1 X44.483 Y164.824 E.03073
G1 X44.097 Y164.455 E.01674
G1 X43.515 Y163.667 E.03072
G1 X43.203 Y163.021 E.02249
G1 X14.628 Y86.82 E2.55169
G1 X14.401 Y85.945 E.02834
G1 X14.349 Y85.281 E.02088
G1 X14.35 Y66.231 E.5973
G1 X14.515 Y65.061 E.03705
G1 X14.858 Y64.196 E.02918
G1 X15.217 Y63.615 E.02141
G1 X40.229 Y30.083 E1.31164
M204 S1000
; printing object Ergodonk Zero v0.1 plates v8.stl id:0 copy 0
;WIPE_START
G1 F8640
G1 X40.265 Y30.035 E-.01385
G1 X42.3 Y27.306 E-.78615
;WIPE_END
G1 Z.6 F720
G1 X206.224 Y151.72 F10800
G1 Z.2 F720
G1 E.8 F2100
M204 S800
;TYPE:Perimeter
;WIDTH:0.419999
G1 F1200
G1 X206.94 Y151.823 E.02268
G1 X208.021 Y151.829 E.03389
G1 X209.102 Y151.564 E.0349
G1 X210.057 Y151.032 E.03428
G1 X209.95 Y151.6 E.01812
G1 X209.149 Y157.265 E.17939
;WIDTH:0.456743
G1 X209.165 Y157.451 E.00642
;WIDTH:0.493486
G1 X209.182 Y157.636 E.00696
;WIDTH:0.521448
G1 X209.218 Y157.709 E.00324
;WIDTH:0.54941
G1 X209.255 Y157.782 E.00345
G1 X209.093 Y157.73 E.00717
;WIDTH:0.506273
G1 X208.93 Y157.678 E.00659
;WIDTH:0.463136
G1 X208.768 Y157.627 E.00593
;WIDTH:0.419999
G1 X208.222 Y157.547 E.0173
G1 X207.815 Y157.586 E.01282
G1 X207.331 Y157.759 E.01612
G1 X206.929 Y158.043 E.01543
G1 X206.615 Y158.422 E.01543
G1 X206.409 Y158.869 E.01543
G1 X206.325 Y159.354 E.01543
G1 X206.37 Y159.844 E.01543
G1 X206.541 Y160.306 E.01545
G1 X206.825 Y160.708 E.01543
G1 X207.203 Y161.023 E.01543
G1 X207.65 Y161.229 E.01543
G1 X208.136 Y161.312 E.01546
;WIDTH:0.465174
G1 X208.291 Y161.316 E.00544
;WIDTH:0.510348
G1 X208.446 Y161.32 E.00603
;WIDTH:0.555522
G1 X208.602 Y161.325 E.00665
;WIDTH:0.600696
G1 X208.757 Y161.329 E.00719
G1 X208.715 Y161.374 E.00285
;WIDTH:0.571996
G1 X208.673 Y161.419 E.00271
;WIDTH:0.543296
G1 X208.618 Y161.556 E.00614
;WIDTH:0.502197
G1 X208.563 Y161.693 E.00564
;WIDTH:0.461098
G1 X208.508 Y161.829 E.0051
;WIDTH:0.419999
G1 X207.77 Y167.154 E.16856
G1 X207.663 Y168.103 E.02994
G1 X207.389 Y167.767 E.01359
G1 X206.909 Y167.289 E.02124
G1 X206.017 Y166.761 E.0325
G1 X205.84 Y166.691 E.00597
G1 X204.813 Y166.412 E.03337
G1 X204.197 Y166.337 E.01946
G1 X204.357 Y166.193 E.00675
G1 X204.621 Y164.509 E.05345
G1 X206.376 Y151.923 E.39844
G1 X206.26 Y151.768 E.00607
M204 S1000
;WIPE_START
G1 F8640
G1 X206.224 Y151.72 E-.01385
G1 X206.94 Y151.823 E-.16703
G1 X208.021 Y151.829 E-.24961
G1 X209.102 Y151.564 E-.257
G1 X209.528 Y151.327 E-.11251
;WIPE_END
G1 Z.6 F720
G1 X185.247 Y163.743 F10800
G1 Z.2 F720
G1 E.8 F2100
M204 S800
G1 F1200
G1 X185.493 Y163.543 E.00994
G1 X185.757 Y161.86 E.05341
G1 X187.512 Y149.273 E.39847
G1 X187.315 Y148.996 E.01066
G1 X187.932 Y148.994 E.01935
G1 X188.891 Y148.766 E.03091
G1 X189.369 Y148.535 E.01665
G1 X189.764 Y148.888 E.01661
G1 X190.621 Y149.37 E.03083
G1 X191.239 Y149.549 E.02017
G1 X190.98 Y149.764 E.01055
G1 X189.178 Y162.49 E.40299
G1 X188.992 Y164.004 E.04783
G1 X189.185 Y164.291 E.01084
G1 X188.525 Y164.285 E.02069
G1 X187.567 Y164.512 E.03087
G1 X187.088 Y164.743 E.01667
G1 X186.692 Y164.39 E.01663
G1 X185.834 Y163.908 E.03086
G1 X185.305 Y163.759 E.01723
M204 S1000
;WIPE_START
G1 F8640
G1 X185.247 Y163.743 E-.01389
G1 X185.493 Y163.543 E-.07321
G1 X185.757 Y161.86 E-.39336
G1 X185.948 Y160.489 E-.31954
;WIPE_END
G1 Z.6 F720
G1 X205.843 Y151.66 F10800
G1 Z.2 F720
G1 E.8 F2100
M204 S800
;TYPE:External perimeter
G1 F1200
G1 X206.002 Y151.871 E.00828
G1 X204.247 Y164.46 E.39854
G1 X203.984 Y166.134 E.05313
G1 X203.772 Y166.29 E.00825
G1 X189.702 Y164.315 E.44548
;WIDTH:0.428019
G1 X189.523 Y164.294 E.00577
G1 X189.366 Y164.05 E.00929
;WIDTH:0.419999
G1 X189.553 Y162.532 E.04796
G1 X191.355 Y149.81 E.40287
;WIDTH:0.431322
G1 X191.556 Y149.646 E.00838
G1 X191.758 Y149.679 E.00661
;WIDTH:0.419999
G1 X205.784 Y151.651 E.4441
M204 S1000
;WIPE_START
G1 F8640
G1 X205.843 Y151.66 E-.01378
G1 X206.002 Y151.871 E-.061
G1 X205.568 Y154.982 E-.72522
;WIPE_END
G1 Z.6 F720
G1 X206.966 Y135.81 F10800
G1 Z.2 F720
G1 E.8 F2100
M204 S800
;TYPE:Perimeter
G1 F1200
G1 X206.919 Y135.997 E.00605
G1 X206.765 Y136.178 E.00745
G1 X206.563 Y136.277 E.00705
G1 X206.421 Y136.295 E.00449
G1 X192.978 Y136.295 E.4215
G1 X192.785 Y136.261 E.00614
G1 X192.555 Y136.105 E.00871
G1 X192.425 Y135.848 E.00903
G1 X192.412 Y119.687 E.50672
G1 X192.504 Y119.378 E.01011
G1 X192.609 Y119.258 E.005
G1 X192.88 Y119.129 E.00941
G1 X192.978 Y119.121 E.00308
G1 X206.421 Y119.121 E.4215
G1 X206.732 Y119.214 E.01018
G1 X206.93 Y119.439 E.0094
G1 X206.986 Y119.687 E.00797
G1 X206.986 Y135.729 E.50298
G1 X206.981 Y135.752 E.00074
M204 S1000
G1 X206.609 Y135.729 F10800
M204 S800
;TYPE:External perimeter
G1 F1200
G1 X206.562 Y135.855 E.00422
G1 X206.421 Y135.918 E.00484
G1 X192.914 Y135.907 E.4235
G1 X192.811 Y135.816 E.00431
G1 X192.79 Y134.954 E.02704
G1 X192.79 Y119.687 E.47869
G1 X192.855 Y119.544 E.00493
G1 X192.978 Y119.498 E.00412
G1 X206.421 Y119.498 E.4215
G1 X206.559 Y119.558 E.00472
G1 X206.609 Y119.687 E.00434
G1 X206.609 Y135.669 E.5011
M204 S1000
;WIPE_START
G1 F8640
G1 X206.609 Y135.729 E-.01385
G1 X206.562 Y135.855 E-.03105
G1 X206.421 Y135.918 E-.03566
G1 X203.305 Y135.915 E-.71944
;WIPE_END
G1 Z.6 F720
G1 X172.884 Y132.654 F10800
G1 Z.2 F720
G1 E.8 F2100
M204 S800
;TYPE:Perimeter
G1 F1200
G1 X172.863 Y131.868 E.02465
G1 X172.863 Y118.187 E.42896
M73 Q0 S121
G1 X172.893 Y118.003 E.00585
G1 X173.089 Y117.734 E.01044
G1 X173.379 Y117.623 E.00974
G1 X173.428 Y117.621 E.00154
G1 X187.871 Y117.621 E.45285
G1 X188.07 Y117.657 E.00634
G1 X188.319 Y117.842 E.00973
G1 X188.424 Y118.069 E.00784
G1 X188.437 Y118.937 E.02722
G1 X188.437 Y132.629 E.4293
G1 X188.411 Y132.797 E.00533
G1 X188.242 Y133.056 E.0097
G1 X187.991 Y133.182 E.00881
G1 X187.871 Y133.195 E.00378
G1 X173.428 Y133.195 E.45285
G1 X173.248 Y133.166 E.00572
G1 X173.062 Y133.061 E.0067
G1 X172.888 Y132.798 E.00989
G1 X172.886 Y132.714 E.00263
M204 S1000
G1 X173.24 Y132.629 F10800
M204 S800
;TYPE:External perimeter
G1 F1200
G1 X173.24 Y118.187 E.45282
G1 X173.315 Y118.036 E.00529
G1 X173.428 Y117.998 E.00374
G1 X187.871 Y117.998 E.45285
G1 X188.02 Y118.072 E.00522
G1 X188.06 Y118.187 E.00382
G1 X188.06 Y132.629 E.45282
G1 X187.995 Y132.772 E.00493
M73 P0 R120
G1 X187.871 Y132.818 E.00415
G1 X173.428 Y132.818 E.45285
G1 X173.277 Y132.742 E.0053
G1 X173.259 Y132.686 E.00184
M204 S1000
;WIPE_START
G1 F8640
G1 X173.24 Y132.629 E-.01387
G1 X173.24 Y129.224 E-.78613
;WIPE_END
G1 Z.6 F720
G1 X170.624 Y136.746 F10800
G1 Z.2 F720
G1 E.8 F2100
M204 S800
;TYPE:Perimeter
G1 F1200
G1 X170.551 Y136.734 E.00232
G1 X170.104 Y136.528 E.01543
G1 X169.725 Y136.213 E.01545
G1 X169.441 Y135.811 E.01543
G1 X169.271 Y135.349 E.01544
G1 X169.225 Y134.859 E.01543
G1 X169.309 Y134.374 E.01543
G1 X169.515 Y133.927 E.01543
G1 X169.83 Y133.548 E.01545
G1 X170.232 Y133.264 E.01543
G1 X170.693 Y133.094 E.01541
G1 X171.122 Y133.053 E.01351
G1 X171.668 Y133.132 E.0173
G1 X172.116 Y133.338 E.01546
G1 X172.494 Y133.653 E.01543
G1 X172.705 Y133.927 E.01084
G1 X172.911 Y134.374 E.01543
G1 X172.994 Y134.859 E.01543
G1 X172.948 Y135.354 E.01559
G1 X172.778 Y135.811 E.01529
G1 X172.419 Y136.293 E.01884
G1 X171.988 Y136.602 E.01663
G1 X171.526 Y136.772 E.01544
G1 X171.036 Y136.817 E.01543
G1 X170.683 Y136.757 E.01123
M204 S1000
G1 X170.679 Y136.378 F10800
M204 S800
;TYPE:External perimeter
G1 F1200
G1 X170.333 Y136.229 E.01181
G1 X169.978 Y135.923 E.0147
G1 X169.789 Y135.667 E.00998
G1 X169.644 Y135.3 E.01237
G1 X169.599 Y134.908 E.01237
G1 X169.657 Y134.518 E.01236
G1 X169.814 Y134.157 E.01234
G1 X170.059 Y133.848 E.01236
G1 X170.376 Y133.613 E.01237
G1 X170.743 Y133.468 E.01237
G1 X171.084 Y133.428 E.01077
G1 X171.524 Y133.48 E.01389
G1 X171.886 Y133.637 E.01237
G1 X172.195 Y133.882 E.01236
G1 X172.405 Y134.157 E.01085
G1 X172.575 Y134.566 E.01389
G1 X172.62 Y134.957 E.01234
G1 X172.562 Y135.348 E.01239
G1 X172.405 Y135.709 E.01234
G1 X172.087 Y136.074 E.01518
G1 X171.843 Y136.253 E.00949
G1 X171.388 Y136.41 E.01509
G1 X171.085 Y136.443 E.00956
G1 X170.737 Y136.392 E.01103
M204 S1000
;WIPE_START
G1 F8640
G1 X170.679 Y136.378 E-.01378
G1 X170.333 Y136.229 E-.08699
G1 X169.978 Y135.923 E-.10822
G1 X169.789 Y135.667 E-.07348
G1 X169.644 Y135.3 E-.09112
G1 X169.599 Y134.908 E-.09111
G1 X169.657 Y134.518 E-.09104
G1 X169.814 Y134.157 E-.0909
G1 X170.059 Y133.848 E-.09105
G1 X170.276 Y133.687 E-.06231
;WIPE_END
G1 Z.6 F720
G1 X154.01 Y115.274 F10800
G1 Z.2 F720
G1 E.8 F2100
M204 S800
;TYPE:Perimeter
G1 F1200
G1 X154.039 Y115.234 E.00155
G1 X154.329 Y115.123 E.00974
G1 X154.378 Y115.121 E.00154
G1 X168.821 Y115.121 E.45285
G1 X169.02 Y115.157 E.00634
G1 X169.27 Y115.343 E.00977
G1 X169.375 Y115.572 E.0079
G1 X169.387 Y116.651 E.03383
G1 X169.387 Y130.129 E.42259
G1 X169.301 Y130.429 E.00979
G1 X169.148 Y130.591 E.00699
G1 X168.924 Y130.686 E.00763
G1 X154.378 Y130.695 E.45608
G1 X154.161 Y130.652 E.00694
G1 X153.926 Y130.469 E.00934
G1 X153.821 Y130.227 E.00827
G1 X153.813 Y115.687 E.45589
G1 X153.843 Y115.503 E.00585
G1 X153.975 Y115.322 E.00702
M204 S1000
G1 X154.265 Y115.536 F10800
M204 S800
;TYPE:External perimeter
G1 F1200
G1 X154.378 Y115.498 E.00374
G1 X168.821 Y115.498 E.45285
G1 X168.971 Y115.572 E.00524
G1 X169.01 Y115.687 E.00381
G1 X169.01 Y130.129 E.45282
G1 X168.95 Y130.267 E.00472
G1 X168.855 Y130.315 E.00334
G1 X154.378 Y130.318 E.45392
G1 X154.228 Y130.243 E.00526
G1 X154.19 Y130.129 E.00377
G1 X154.19 Y115.687 E.45282
G1 X154.238 Y115.589 E.00342
M204 S1000
;WIPE_START
G1 F8640
G1 X154.265 Y115.536 E-.01373
G1 X154.378 Y115.498 E-.02753
G1 X157.664 Y115.498 E-.75874
;WIPE_END
G1 Z.6 F720
G1 X153.952 Y111.413 F10800
G1 Z.2 F720
G1 E.8 F2100
M204 S800
;TYPE:Perimeter
G1 F1200
G1 X153.843 Y111.263 E.00581
G1 X153.813 Y110.687 E.01808
G1 X153.813 Y96.637 E.44053
G1 X153.843 Y96.453 E.00585
M73 P1 R120
M73 Q1 S121
G1 X154.039 Y96.184 E.01044
G1 X154.329 Y96.073 E.00974
G1 X154.378 Y96.071 E.00154
G1 X168.821 Y96.071 E.45285
G1 X169.02 Y96.107 E.00634
G1 X169.27 Y96.293 E.00977
G1 X169.375 Y96.522 E.0079
G1 X169.387 Y97.601 E.03383
G1 X169.387 Y111.08 E.42262
G1 X169.356 Y111.263 E.00582
G1 X169.161 Y111.532 E.01042
G1 X169.02 Y111.609 E.00504
G1 X168.821 Y111.645 E.00634
G1 X154.329 Y111.643 E.45439
G1 X154.039 Y111.532 E.00974
G1 X153.988 Y111.461 E.00274
M204 S1000
G1 X154.228 Y111.193 F10800
M204 S800
;TYPE:External perimeter
G1 F1200
G1 X154.19 Y111.08 E.00374
G1 X154.19 Y96.637 E.45285
G1 X154.265 Y96.486 E.00529
G1 X154.378 Y96.448 E.00374
G1 X168.821 Y96.448 E.45285
G1 X168.971 Y96.522 E.00524
G1 X169.01 Y96.637 E.00381
G1 X169.01 Y111.08 E.45285
G1 X168.934 Y111.23 E.00527
G1 X168.821 Y111.268 E.00374
G1 X154.362 Y111.267 E.45335
G1 X154.28 Y111.222 E.00293
M204 S1000
;WIPE_START
G1 F8640
G1 X154.228 Y111.193 E-.01375
G1 X154.19 Y111.08 E-.02753
G1 X154.19 Y107.794 E-.75872
;WIPE_END
G1 Z.6 F720
G1 X149.835 Y125.683 F10800
G1 Z.2 F720
G1 E.8 F2100
M204 S800
;TYPE:Perimeter
G1 F1200
G1 X149.771 Y125.695 E.00204
G1 X135.328 Y125.695 E.45285
G1 X135.13 Y125.659 E.00631
G1 X134.876 Y125.469 E.00995
G1 X134.771 Y125.227 E.00827
G1 X134.763 Y125.129 E.00308
G1 X134.768 Y110.613 E.45514
G1 X134.865 Y110.362 E.00844
G1 X134.989 Y110.234 E.00559
G1 X135.279 Y110.123 E.00974
G1 X135.328 Y110.121 E.00154
G1 X149.771 Y110.121 E.45285
G1 X149.97 Y110.157 E.00634
G1 X150.224 Y110.347 E.00995
G1 X150.306 Y110.503 E.00553
G1 X150.337 Y111.08 E.01812
G1 X150.337 Y125.129 E.4405
G1 X150.306 Y125.313 E.00585
G1 X150.111 Y125.582 E.01042
G1 X149.97 Y125.659 E.00504
G1 X149.894 Y125.673 E.00242
M204 S1000
G1 X149.771 Y125.318 F10800
M204 S800
;TYPE:External perimeter
G1 F1200
G1 X135.328 Y125.318 E.45285
G1 X135.178 Y125.243 E.00526
G1 X135.14 Y125.129 E.00377
G1 X135.142 Y110.662 E.4536
G1 X135.215 Y110.536 E.00457
G1 X135.328 Y110.498 E.00374
G1 X149.771 Y110.498 E.45285
G1 X149.922 Y110.573 E.00529
G1 X149.96 Y110.687 E.00377
G1 X149.96 Y125.129 E.45282
G1 X149.884 Y125.28 E.0053
G1 X149.828 Y125.299 E.00185
M204 S1000
;WIPE_START
G1 F8640
G1 X149.771 Y125.318 E-.01387
G1 X146.367 Y125.318 E-.78613
;WIPE_END
G1 Z.6 F720
G1 X134.766 Y106.121 F10800
G1 Z.2 F720
G1 E.8 F2100
M204 S800
;TYPE:Perimeter
G1 F1200
G1 X134.763 Y106.08 E.00129
G1 X134.763 Y95.637 E.32743
G1 X134.763 Y91.637 E.12542
G1 X134.782 Y91.49 E.00465
G1 X134.865 Y91.312 E.00616
G1 X134.989 Y91.184 E.00559
G1 X135.279 Y91.073 E.00974
G1 X149.771 Y91.071 E.45439
G1 X149.97 Y91.107 E.00634
G1 X150.224 Y91.297 E.00995
G1 X150.306 Y91.453 E.00553
G1 X150.337 Y92.03 E.01812
G1 X150.337 Y106.08 E.44053
G1 X150.306 Y106.263 E.00582
G1 X150.111 Y106.532 E.01042
G1 X149.97 Y106.609 E.00504
G1 X149.771 Y106.645 E.00634
G1 X135.328 Y106.645 E.45285
G1 X135.13 Y106.609 E.00631
G1 X134.876 Y106.419 E.00995
G1 X134.773 Y106.18 E.00816
M204 S1000
G1 X135.14 Y106.08 F10800
M204 S800
;TYPE:External perimeter
G1 F1200
G1 X135.14 Y95.637 E.32743
G1 X135.14 Y91.637 E.12542
G1 X135.215 Y91.486 E.00529
G1 X135.328 Y91.448 E.00374
G1 X149.771 Y91.448 E.45285
G1 X149.922 Y91.524 E.0053
G1 X149.96 Y91.637 E.00374
G1 X149.96 Y106.08 E.45285
G1 X149.884 Y106.23 E.00527
G1 X149.771 Y106.268 E.00374
G1 X135.328 Y106.268 E.45285
G1 X135.178 Y106.193 E.00526
G1 X135.159 Y106.136 E.00188
M204 S1000
;WIPE_START
G1 F8640
G1 X135.14 Y106.08 E-.01365
G1 X135.14 Y102.674 E-.78635
;WIPE_END
G1 Z.6 F720
G1 X130.785 Y110.634 F10800
G1 Z.2 F720
G1 E.8 F2100
M204 S800
;TYPE:Perimeter
G1 F1200
G1 X130.721 Y110.645 E.00204
G1 X116.279 Y110.645 E.45282
G1 X116.08 Y110.609 E.00634
