; generated by PrusaSlicer 2.7.0+MacOS-arm64 on 2023-12-05 at 12:18:36 UTC


;
;
; 

; external perimeters extrusion width = 0.60mm
; perimeters extrusion width = 0.50mm
; infill extrusion width = 0.50mm
; solid infill extrusion width = 0.50mm
; top infill extrusion width = 0.45mm
; first layer extrusion width = 0.42mm

M73 P0 R121
M73 Q0 S122
M201 X1000 Y1000 Z200 E5000 ; sets maximum accelerations, mm/sec^2
M203 X200 Y200 Z12 E120 ; sets maximum feedrates, mm / sec
M204 S1250 T1250 ; sets acceleration (S) and retract acceleration (R), mm/sec^2
M205 X8.00 Y8.00 Z0.40 E4.50 ; sets the jerk limits, mm/sec
M205 S0 T0 ; sets the minimum extruding and travel feed rate, mm/sec

; printing object Ergodonk Zero v0.1 plates v8.stl id:0 copy 0
; stop printing object Ergodonk Zero v0.1 plates v8.stl id:0 copy 0

;TYPE:Custom
M862.3 P "MK3S" ; printer model check
M862.1 P0.4 ; nozzle diameter check
M115 U3.12.2 ; tell printer latest fw version
G90 ; use absolute coordinates
M83 ; extruder relative mode
M104 S215 ; set extruder temp
M140 S60 ; set bed temp
M190 S60 ; wait for bed temp
M109 S215 ; wait for extruder temp
G28 W ; home all without mesh bed level
G80 ; mesh bed leveling

G1 Z0.2 F720
G1 Y-3 F1000 ; go outside print area
G92 E0
G1 X60 E9 F1000 ; intro line
G1 X100 E12.5 F1000 ; intro line

G92 E0
M221 S95

; Don't change E values below. Excessive value can damage the printer.

M907 E538 ; set extruder motor current
G21 ; set units to millimeters
G90 ; use absolute coordinates
M83 ; use relative distances for extrusion
M900 K0.05 ; Filament gcode LA 1.5
M900 K30 ; Filament gcode LA 1.0
M107
;LAYER_CHANGE
;Z:0.2
;HEIGHT:0.2
;BEFORE_LAYER_CHANGE
G92 E0.0
;0.2


G1 E-.8 F2100
G1 Z.2 F720
;AFTER_LAYER_CHANGE
;0.2
G1 X44.097 Y45.545 F10800
G1 Z.2 F720
G1 E.8 F2100
M204 S800
;TYPE:Skirt/Brim
;WIDTH:0.42
G1 F1200
G1 X44.483 Y45.176 E.01674
G1 X45.299 Y44.633 E.03073
G1 X46.215 Y44.284 E.03073
G1 X46.867 Y44.162 E.0208
G1 X222.781 Y24.834 E5.54885
G1 X223.95 Y24.852 E.03666
G1 X224.899 Y25.1 E.03075
G1 X225.308 Y25.283 E.01405
G1 X226.126 Y25.823 E.03073
G1 X226.514 Y26.189 E.01672
G1 X226.803 Y26.532 E.01406
G1 X227.306 Y27.375 E.03078
G1 X227.659 Y28.568 E.03901
G1 X235.627 Y85.305 E1.79641
G1 X235.64 Y148.502 E1.9815
G1 X235.391 Y149.737 E.0395
G1 X234.898 Y150.721 E.03451
G1 X212.849 Y183.271 E1.23269
G1 X212.352 Y183.867 E.02433
G1 X211.523 Y184.532 E.03332
G1 X210.558 Y184.977 E.03332
G1 X209.224 Y185.193 E.04237
G1 X46.361 Y185.193 E5.10646
G1 X45.624 Y185.124 E.02321
G1 X44.651 Y184.838 E.0318
G1 X44.158 Y184.59 E.0173
G1 X43.347 Y183.981 E.0318
G1 X42.852 Y183.433 E.02315
G1 X15.217 Y146.385 E1.44918
G1 X14.858 Y145.804 E.02141
G1 X14.515 Y144.939 E.02918
G1 X14.35 Y143.769 E.03705
G1 X14.349 Y124.719 E.5973
G1 X14.512 Y123.542 E.03726
G1 X43.203 Y46.979 E2.5636
G1 X43.515 Y46.333 E.02249
G1 X44.062 Y45.593 E.02885
M204 S1000
; printing object Ergodonk Zero v0.1 plates v8.stl id:0 copy 0
;WIPE_START
G1 F8640
G1 X44.097 Y45.545 E-.01372
G1 X44.483 Y45.176 E-.1233
G1 X45.299 Y44.633 E-.22632
G1 X46.215 Y44.284 E-.22634
G1 X46.867 Y44.162 E-.15316
G1 X47.113 Y44.135 E-.05716
;WIPE_END
G1 Z.6 F720
G1 X188.426 Y115.41 F10800
G1 Z.2 F720
G1 E.8 F2100
M204 S800
;TYPE:Perimeter
;WIDTH:0.419999
G1 F1200
G1 X188.437 Y115.47 E.00191
G1 X188.437 Y129.913 E.45285
G1 X188.363 Y130.192 E.00905
G1 X188.21 Y130.366 E.00726
G1 X188.07 Y130.443 E.00501
G1 X187.871 Y130.479 E.00634
G1 X173.428 Y130.479 E.45285
G1 X173.23 Y130.443 E.00631
G1 X172.976 Y130.253 E.00995
G1 X172.871 Y130.011 E.00827
G1 X172.863 Y129.913 E.00308
G1 X172.863 Y115.47 E.45285
G1 X172.936 Y115.191 E.00904
M73 Q0 S121
G1 X173.089 Y115.018 E.00724
G1 X173.379 Y114.907 E.00974
G1 X173.428 Y114.905 E.00154
G1 X187.871 Y114.905 E.45285
G1 X188.07 Y114.941 E.00634
G1 X188.323 Y115.131 E.00992
G1 X188.406 Y115.287 E.00554
G1 X188.417 Y115.351 E.00204
M204 S1000
G1 X188.06 Y115.47 F10800
M204 S800
;TYPE:External perimeter
G1 F1200
G1 X188.06 Y129.913 E.45285
G1 X187.994 Y130.056 E.00494
G1 X187.871 Y130.102 E.00412
G1 X173.428 Y130.102 E.45285
G1 X173.277 Y130.026 E.0053
G1 X173.24 Y129.913 E.00373
G1 X173.24 Y115.47 E.45285
G1 X173.305 Y115.328 E.0049
G1 X173.428 Y115.282 E.00412
G1 X187.871 Y115.282 E.45285
G1 X188.022 Y115.357 E.00529
G1 X188.041 Y115.413 E.00185
M204 S1000
;WIPE_START
G1 F8640
G1 X188.06 Y115.47 E-.01387
G1 X188.06 Y118.875 E-.78613
;WIPE_END
G1 Z.6 F720
G1 X187.946 Y95.868 F10800
G1 Z.2 F720
G1 E.8 F2100
M204 S800
;TYPE:Perimeter
G1 F1200
G1 X188.07 Y95.891 E.00395
G1 X188.323 Y96.081 E.00992
G1 X188.406 Y96.237 E.00554
G1 X188.437 Y96.42 E.00582
G1 X188.437 Y110.863 E.45285
G1 X188.363 Y111.142 E.00905
G1 X188.241 Y111.291 E.00604
G1 X188.07 Y111.393 E.00624
G1 X187.871 Y111.429 E.00634
G1 X173.428 Y111.429 E.45285
G1 X173.23 Y111.393 E.00631
G1 X172.976 Y111.203 E.00995
G1 X172.871 Y110.961 E.00827
G1 X172.863 Y110.863 E.00308
G1 X172.863 Y96.42 E.45285
G1 X172.936 Y96.141 E.00904
G1 X173.089 Y95.968 E.00724
G1 X173.379 Y95.857 E.00974
G1 X173.428 Y95.855 E.00154
G1 X187.871 Y95.855 E.45285
G1 X187.887 Y95.858 E.00051
M204 S1000
G1 X187.871 Y96.232 F10800
M204 S800
;TYPE:External perimeter
G1 F1200
G1 X188.022 Y96.307 E.00529
G1 X188.06 Y96.42 E.00374
G1 X188.06 Y110.863 E.45285
G1 X187.994 Y111.006 E.00494
G1 X187.871 Y111.052 E.00412
G1 X173.428 Y111.052 E.45285
G1 X173.277 Y110.976 E.0053
G1 X173.24 Y110.863 E.00373
G1 X173.24 Y96.42 E.45285
G1 X173.305 Y96.278 E.0049
M73 P0 R120
G1 X173.428 Y96.232 E.00412
G1 X187.811 Y96.232 E.45097
M204 S1000
;WIPE_START
G1 F8640
G1 X187.871 Y96.232 E-.01385
G1 X188.022 Y96.307 E-.03893
G1 X188.06 Y96.42 E-.02753
G1 X188.06 Y99.537 E-.71969
;WIPE_END
G1 Z.6 F720
G1 X207.469 Y93.813 F10800
G1 Z.2 F720
G1 E.8 F2100
M204 S800
;TYPE:Perimeter
G1 F1200
G1 X207.482 Y93.846 E.00111
G1 X207.486 Y93.921 E.00235
G1 X207.486 Y108.363 E.45282
G1 X207.419 Y108.632 E.00869
G1 X207.273 Y108.806 E.00712
G1 X207.066 Y108.91 E.00726
G1 X206.921 Y108.929 E.00459
G1 X192.478 Y108.929 E.45285
G1 X192.279 Y108.893 E.00634
G1 X192.026 Y108.703 E.00992
G1 X191.921 Y108.461 E.00827
G1 X191.912 Y108.363 E.00309
G1 X191.912 Y95.653 E.39851
G1 X191.912 Y93.921 E.05431
G1 X191.986 Y93.641 E.00908
G1 X192.106 Y93.495 E.00593
G1 X192.239 Y93.408 E.00498
G1 X192.478 Y93.355 E.00768
G1 X206.921 Y93.355 E.45285
G1 X207.215 Y93.437 E.00957
G1 X207.397 Y93.616 E.008
G1 X207.449 Y93.757 E.00471
M204 S1000
G1 X207.109 Y93.921 F10800
M204 S800
;TYPE:External perimeter
G1 F1200
G1 X207.109 Y108.363 E.45282
G1 X207.038 Y108.511 E.00515
G1 X206.921 Y108.552 E.00389
G1 X192.478 Y108.552 E.45285
G1 X192.327 Y108.476 E.0053
G1 X192.29 Y108.363 E.00373
G1 X192.29 Y95.653 E.39851
G1 X192.29 Y93.921 E.05431
G1 X192.354 Y93.779 E.00488
G1 X192.478 Y93.732 E.00416
G1 X206.921 Y93.732 E.45285
G1 X207.062 Y93.795 E.00484
G1 X207.088 Y93.864 E.00231
M204 S1000
;WIPE_START
G1 F8640
G1 X207.109 Y93.921 E-.01403
G1 X207.109 Y97.325 E-.78597
;WIPE_END
G1 Z.6 F720
G1 X206.98 Y74.217 F10800
G1 Z.2 F720
G1 E.8 F2100
M204 S800
;TYPE:Perimeter
G1 F1200
G1 X206.986 Y74.271 E.0017
G1 X206.986 Y90.313 E.50298
G1 X206.93 Y90.561 E.00797
G1 X206.732 Y90.786 E.0094
G1 X206.519 Y90.871 E.00719
G1 X206.421 Y90.879 E.00308
G1 X192.978 Y90.879 E.4215
G1 X192.824 Y90.858 E.00487
G1 X192.609 Y90.742 E.00766
G1 X192.436 Y90.476 E.00995
G1 X192.412 Y90.313 E.00517
G1 X192.412 Y74.271 E.50298
G1 X192.476 Y74.01 E.00843
G1 X192.555 Y73.895 E.00437
G1 X192.785 Y73.739 E.00871
G1 X193.326 Y73.705 E.017
G1 X206.421 Y73.705 E.41058
G1 X206.691 Y73.773 E.00873
G1 X206.843 Y73.894 E.00609
G1 X206.969 Y74.132 E.00844
G1 X206.972 Y74.157 E.00079
M204 S1000
G1 X206.609 Y74.271 F10800
M204 S800
;TYPE:External perimeter
G1 F1200
G1 X206.609 Y90.313 E.50298
G1 X206.559 Y90.442 E.00434
G1 X206.421 Y90.502 E.00472
G1 X192.978 Y90.502 E.4215
G1 X192.855 Y90.456 E.00412
G1 X192.79 Y90.313 E.00493
G1 X192.79 Y74.271 E.50298
G1 X192.837 Y74.145 E.00422
G1 X192.978 Y74.082 E.00484
G1 X206.421 Y74.082 E.4215
G1 X206.562 Y74.145 E.00484
G1 X206.588 Y74.215 E.00234
M204 S1000
;WIPE_START
G1 F8640
G1 X206.609 Y74.271 E-.01381
G1 X206.609 Y77.676 E-.78619
;WIPE_END
G1 Z.6 F720
G1 X188.251 Y92.22 F10800
G1 Z.2 F720
G1 E.8 F2100
M204 S800
;TYPE:Perimeter
G1 F1200
G1 X188.21 Y92.266 E.00193
G1 X188.07 Y92.343 E.00501
G1 X187.871 Y92.379 E.00634
G1 X173.428 Y92.379 E.45285
G1 X173.23 Y92.343 E.00631
G1 X172.976 Y92.153 E.00995
G1 X172.871 Y91.911 E.00827
G1 X172.863 Y91.813 E.00308
G1 X172.863 Y77.371 E.45282
G1 X172.888 Y77.202 E.00536
G1 X172.993 Y77.009 E.00689
G1 X173.248 Y76.834 E.0097
G1 X174.108 Y76.805 E.02698
G1 X175.404 Y76.805 E.04064
G1 X187.871 Y76.805 E.39089
G1 X188.132 Y76.869 E.00843
G1 X188.341 Y77.056 E.00879
G1 X188.437 Y77.371 E.01033
G1 X188.437 Y91.817 E.45294
G1 X188.363 Y92.093 E.00896
G1 X188.291 Y92.175 E.00342
M204 S1000
G1 X187.994 Y91.956 F10800
M204 S800
;TYPE:External perimeter
G1 F1200
G1 X187.871 Y92.002 E.00412
G1 X173.428 Y92.002 E.45285
G1 X173.277 Y91.927 E.00529
G1 X173.24 Y91.813 E.00376
G1 X173.24 Y77.371 E.45282
G1 X173.312 Y77.222 E.00519
M73 Q1 S121
G1 X173.428 Y77.182 E.00385
G1 X175.404 Y77.182 E.06196
G1 X187.871 Y77.182 E.39089
M73 P1 R120
G1 X187.995 Y77.228 E.00415
G1 X188.06 Y77.371 E.00493
G1 X188.06 Y91.814 E.45285
G1 X188.019 Y91.902 E.00304
M204 S1000
;WIPE_START
G1 F8640
G1 X187.994 Y91.956 E-.01374
G1 X187.871 Y92.002 E-.03032
G1 X184.597 Y92.002 E-.75594
;WIPE_END
G1 Z.6 F720
G1 X170.223 Y73.42 F10800
G1 Z.2 F720
G1 E.8 F2100
M204 S800
;TYPE:Perimeter
G1 F1200
G1 X170.636 Y73.239 E.01414
G1 X171.122 Y73.187 E.01533
G1 X171.626 Y73.251 E.01593
G1 X172.116 Y73.472 E.01685
G1 X172.494 Y73.787 E.01543
G1 X172.778 Y74.189 E.01543
G1 X172.949 Y74.651 E.01545
G1 X172.994 Y75.141 E.01543
G1 X172.911 Y75.626 E.01543
G1 X172.705 Y76.073 E.01543
G1 X172.39 Y76.452 E.01545
G1 X171.941 Y76.755 E.01698
G1 X171.526 Y76.906 E.01385
G1 X171.036 Y76.951 E.01543
G1 X170.551 Y76.868 E.01543
G1 X170.104 Y76.662 E.01543
G1 X169.725 Y76.347 E.01545
G1 X169.441 Y75.945 E.01543
G1 X169.271 Y75.483 E.01544
G1 X169.225 Y74.993 E.01543
G1 X169.309 Y74.508 E.01543
G1 X169.488 Y74.116 E.01351
G1 X169.715 Y73.801 E.01217
G1 X170.104 Y73.472 E.01597
G1 X170.168 Y73.444 E.00219
M204 S1000
G1 X170.388 Y73.742 F10800
M204 S800
;TYPE:External perimeter
G1 F1200
G1 X170.742 Y73.602 E.01194
G1 X171.084 Y73.562 E.0108
G1 X171.524 Y73.615 E.0139
G1 X171.886 Y73.771 E.01236
G1 X172.195 Y74.017 E.01238
G1 X172.43 Y74.333 E.01235
G1 X172.575 Y74.7 E.01237
G1 X172.62 Y75.092 E.01237
G1 X172.562 Y75.482 E.01236
G1 X172.405 Y75.843 E.01234
G1 X172.16 Y76.153 E.01239
G1 X171.797 Y76.407 E.01389
G1 X171.477 Y76.532 E.01077
G1 X171.085 Y76.577 E.01237
G1 X170.601 Y76.481 E.01547
G1 X170.333 Y76.363 E.00918
G1 X170.024 Y76.118 E.01236
G1 X169.789 Y75.801 E.01237
G1 X169.644 Y75.434 E.01237
G1 X169.599 Y75.042 E.01237
G1 X169.657 Y74.652 E.01236
G1 X169.794 Y74.336 E.0108
G1 X170.021 Y74.021 E.01217
G1 X170.339 Y73.775 E.01261
M204 S1000
;WIPE_START
G1 F8640
G1 X170.388 Y73.742 E-.01364
G1 X170.742 Y73.602 E-.0879
G1 X171.084 Y73.562 E-.07951
G1 X171.524 Y73.615 E-.10233
G1 X171.886 Y73.771 E-.09102
G1 X172.195 Y74.017 E-.0912
G1 X172.43 Y74.333 E-.09093
G1 X172.575 Y74.7 E-.09112
G1 X172.62 Y75.092 E-.09111
G1 X172.581 Y75.354 E-.06124
;WIPE_END
G1 Z.6 F720
G1 X209.146 Y48.675 F10800
G1 Z.2 F720
G1 E.8 F2100
M204 S800
;TYPE:Perimeter
;WIDTH:0.512745
G1 F1200
G1 X209.116 Y48.683 E.00121
;WIDTH:0.559118
G1 X209.02 Y48.71 E.00428
;WIDTH:0.60549
G1 X208.925 Y48.736 E.00461
G1 X209.066 Y48.849 E.00845
;WIDTH:0.559118
G1 X209.207 Y48.962 E.00776
;WIDTH:0.512745
G1 X209.348 Y49.075 E.00706
;WIDTH:0.466372
G1 X209.49 Y49.188 E.00639
;WIDTH:0.419999
G1 X209.804 Y49.566 E.01541
G1 X210.01 Y50.013 E.01543
G1 X210.094 Y50.498 E.01543
G1 X210.048 Y50.989 E.01546
G1 X209.878 Y51.45 E.01541
;WIDTH:0.440135
G1 X209.547 Y51.92 E.01899
;WIDTH:0.474202
G1 X209.474 Y51.999 E.00386
;WIDTH:0.508269
G1 X209.401 Y52.079 E.00419
;WIDTH:0.542336
G1 X209.327 Y52.158 E.0045
G1 X209.428 Y52.134 E.00431
;WIDTH:0.508269
G1 X209.528 Y52.11 E.00398
;WIDTH:0.474202
G1 X209.629 Y52.085 E.00373
;WIDTH:0.440135
G1 X210.304 Y52.001 E.02247
;WIDTH:0.419999
G1 X223.933 Y50.085 E.43153
G1 X224.234 Y50.125 E.00952
G1 X224.381 Y50.217 E.00544
G1 X224.505 Y50.369 E.00615
G1 X224.571 Y50.567 E.00654
G1 X226.581 Y64.869 E.45284
G1 X226.572 Y65.078 E.00656
G1 X226.494 Y65.258 E.00615
G1 X226.259 Y65.461 E.00974
G1 X226.1 Y65.508 E.0052
G1 X211.798 Y67.518 E.45284
G1 X211.535 Y67.493 E.00828
G1 X211.32 Y67.359 E.00794
G1 X211.158 Y67.032 E.01144
G1 X210.999 Y65.819 E.03836
G1 X210.983 Y65.513 E.00961
G1 X210.209 Y66.31 E.03483
G1 X209.243 Y66.862 E.03488
G1 X208.202 Y67.155 E.03391
G1 X193.018 Y69.293 E.48078
G1 X191.904 Y69.308 E.03493
G1 X190.881 Y69.067 E.03295
G1 X190.403 Y68.836 E.01665
G1 X190.008 Y69.19 E.01663
G1 X189.151 Y69.673 E.03084
G1 X188.085 Y69.981 E.03479
G1 X172.895 Y72.12 E.48097
G1 X171.68 Y72.121 E.0381
G1 X170.566 Y71.824 E.03615
G1 X169.966 Y71.487 E.02158
G1 X169.495 Y71.198 E.01733
G1 X168.757 Y70.471 E.03248
G1 X168.14 Y69.462 E.03708
G1 X168.083 Y69.326 E.00462
G1 X167.806 Y68.328 E.03247
G1 X167.786 Y68.182 E.00462
G1 X167.777 Y67.141 E.03264
G1 X167.794 Y67 E.00445
G1 X168.053 Y65.997 E.03248
G1 X168.108 Y65.86 E.00463
G1 X168.618 Y64.958 E.03249
G1 X168.707 Y64.84 E.00463
G1 X169.432 Y64.1 E.03248
G1 X170.44 Y63.482 E.03707
G1 X170.575 Y63.424 E.00461
G1 X171.559 Y63.149 E.03203
G1 X172.319 Y63.044 E.02406
G1 X172.117 Y62.89 E.00796
G1 X170.335 Y50.308 E.39844
G1 X170.124 Y48.617 E.05343
G1 X170.238 Y48.435 E.00673
G1 X169.593 Y48.537 E.02047
G1 X168.571 Y48.564 E.03206
G1 X167.499 Y48.338 E.03435
G1 X166.798 Y47.98 E.02468
G1 X166.426 Y47.753 E.01366
G1 X166.605 Y48.801 E.03334
G1 X167.668 Y56.316 E.23797
G1 X167.659 Y56.522 E.00647
G1 X167.585 Y56.7 E.00604
G1 X167.347 Y56.908 E.00991
G1 X167.084 Y56.97 E.00847
G1 X161.636 Y57.735 E.17249
G1 X152.885 Y58.965 E.27708
G1 X152.638 Y58.945 E.00777
G1 X152.409 Y58.808 E.00837
G1 X152.262 Y58.56 E.00904
G1 X152.246 Y58.484 E.00244
G1 X150.235 Y44.177 E.45299
G1 X150.26 Y43.921 E.00806
G1 X150.393 Y43.706 E.00793
G1 X150.621 Y43.565 E.00841
G1 X150.718 Y43.543 E.00312
G1 X163.84 Y41.709 E.41543
G1 X164.396 Y41.691 E.01744
G1 X165.001 Y41.763 E.0191
G1 X165.167 Y41.901 E.00677
G1 X165.439 Y41.263 E.02175
G1 X165.564 Y41.08 E.00695
G1 X166.249 Y40.412 E.03
G1 X167.214 Y39.86 E.03486
G1 X168.32 Y39.553 E.03599
G1 X183.439 Y37.429 E.4787
G1 X184.479 Y37.41 E.03261
G1 X185.205 Y37.565 E.02328
G1 X185.706 Y37.702 E.01629
G1 X186.053 Y37.884 E.01229
G1 X186.449 Y37.531 E.01663
G1 X187.306 Y37.048 E.03084
G1 X188.441 Y36.726 E.03699
G1 X203.561 Y34.601 E.47874
G1 X204.657 Y34.588 E.03437
G1 X205.482 Y34.784 E.02659
G1 X205.954 Y34.93 E.01549
G1 X206.4 Y35.196 E.01628
G1 X206.754 Y35.443 E.01353
G1 X206.498 Y33.873 E.04988
G1 X206.536 Y33.572 E.00951
G1 X206.654 Y33.395 E.00667
G1 X206.883 Y33.253 E.00845
G1 X221.281 Y31.221 E.45591
G1 X221.51 Y31.236 E.0072
G1 X221.701 Y31.329 E.00666
G1 X221.843 Y31.486 E.00664
G1 X221.92 Y31.702 E.00719
G1 X223.93 Y46.004 E.45284
G1 X223.921 Y46.213 E.00656
G1 X223.843 Y46.393 E.00615
G1 X223.608 Y46.597 E.00976
G1 X223.449 Y46.643 E.00519
G1 X209.307 Y48.631 E.44777
;WIDTH:0.466372
G1 X209.211 Y48.657 E.0035
;WIDTH:0.512745
G1 X209.204 Y48.659 E.00028
M204 S1000
;WIPE_START
G1 F8640
G1 X209.146 Y48.675 E-.01389
G1 X209.116 Y48.683 E-.00717
;WIPE_END
G1 E-.77894 F2100
G1 Z.6 F720
G1 X149.835 Y80.818 F10800
G1 Z.2 F720
G1 E.8 F2100
M204 S800
;WIDTH:0.419999
G1 F1200
G1 X149.771 Y80.829 E.00204
G1 X135.328 Y80.829 E.45285
G1 X135.13 Y80.793 E.00631
G1 X134.989 Y80.716 E.00504
G1 X134.865 Y80.588 E.00559
G1 X134.763 Y80.288 E.00994
G1 X134.763 Y65.821 E.4536
G1 X134.796 Y65.63 E.00608
G1 X134.885 Y65.47 E.00574
G1 X135.131 Y65.291 E.00954
G1 X135.328 Y65.255 E.00628
G1 X147.212 Y65.255 E.37261
G1 X149.771 Y65.255 E.08024
G1 X150.03 Y65.318 E.00836
G1 X150.22 Y65.476 E.00775
G1 X150.323 Y65.698 E.00767
