; generated by PrusaSlicer 2.7.0+MacOS-arm64 on 2023-12-07 at 21:19:34 UTC


;
;
; 

; external perimeters extrusion width = 0.45mm
; perimeters extrusion width = 0.45mm
; infill extrusion width = 0.45mm
; solid infill extrusion width = 0.45mm
; top infill extrusion width = 0.40mm
; support material extrusion width = 0.35mm
; first layer extrusion width = 0.42mm

M73 P0 R46
M73 Q0 S46
M201 X1000 Y1000 Z200 E5000 ; sets maximum accelerations, mm/sec^2
M203 X200 Y200 Z12 E120 ; sets maximum feedrates, mm / sec
M204 S1250 T1250 ; sets acceleration (S) and retract acceleration (R), mm/sec^2
M205 X8.00 Y8.00 Z0.40 E4.50 ; sets the jerk limits, mm/sec
M205 S0 T0 ; sets the minimum extruding and travel feed rate, mm/sec

; printing object collar.stl id:0 copy 0
; stop printing object collar.stl id:0 copy 0

;TYPE:Custom
M862.3 P "MK3S" ; printer model check
M862.1 P0.4 ; nozzle diameter check
M115 U3.12.2 ; tell printer latest fw version
G90 ; use absolute coordinates
M83 ; extruder relative mode
M104 S215 ; set extruder temp
M140 S60 ; set bed temp
M190 S60 ; wait for bed temp
M109 S215 ; wait for extruder temp
G28 W ; home all without mesh bed level
G80 ; mesh bed leveling

G1 Z0.2 F720
G1 Y-3 F1000 ; go outside print area
G92 E0
G1 X60 E9 F1000 ; intro line
G1 X100 E12.5 F1000 ; intro line

G92 E0
M221 S95

; Don't change E values below. Excessive value can damage the printer.
M907 E430 ; set extruder motor current
G21 ; set units to millimeters
G90 ; use absolute coordinates
M83 ; use relative distances for extrusion
M900 K0.05 ; Filament gcode LA 1.5
M900 K30 ; Filament gcode LA 1.0
M107
;LAYER_CHANGE
;Z:0.2
;HEIGHT:0.2
;BEFORE_LAYER_CHANGE
G92 E0.0
;0.2


G1 E-.8 F2100
G1 Z.2 F720
;AFTER_LAYER_CHANGE
;0.2
G1 X115.23 Y95.752 F10800
G1 Z.2 F720
G1 E.8 F2100
M204 S800
;TYPE:Skirt/Brim
;WIDTH:0.42
G1 F1200
G1 X116.02 Y94.982 E.03459
G1 X117.358 Y93.929 E.05339
G1 X119.209 Y92.857 E.06707
G1 X120.693 Y92.256 E.0502
G1 X122.767 Y91.734 E.06706
G1 X124.444 Y91.558 E.05287
G1 X125.556 Y91.558 E.03487
G1 X127.233 Y91.734 E.05287
G1 X129.307 Y92.256 E.06706
G1 X130.791 Y92.857 E.0502
G1 X131.854 Y93.425 E.03779
G1 X133.18 Y94.32 E.05016
G1 X134.77 Y95.752 E.06709
G1 X135.799 Y96.978 E.05019
G1 X136.934 Y98.791 E.06707
G1 X137.631 Y100.367 E.05403
G1 X137.962 Y101.398 E.03395
G1 X138.313 Y103.06 E.05326
G1 X138.427 Y104.161 E.03471
G1 X138.427 Y105.839 E.05261
G1 X138.313 Y106.94 E.03471
G1 X137.962 Y108.602 E.05326
G1 X137.226 Y110.611 E.06708
G1 X136.474 Y112.024 E.05019
G1 X135.892 Y112.898 E.03292
G1 X134.77 Y114.248 E.05504
G1 X133.98 Y115.018 E.03459
G1 X132.642 Y116.071 E.05339
G1 X130.791 Y117.143 E.06707
G1 X129.307 Y117.744 E.0502
G1 X127.233 Y118.266 E.06706
G1 X125.556 Y118.442 E.05287
G1 X124.444 Y118.442 E.03487
G1 X122.767 Y118.266 E.05287
G1 X120.693 Y117.744 E.06706
G1 X119.209 Y117.143 E.0502
G1 X118.146 Y116.575 E.03779
G1 X116.82 Y115.68 E.05016
G1 X115.23 Y114.248 E.06709
G1 X114.201 Y113.022 E.05019
G1 X113.066 Y111.209 E.06707
G1 X112.369 Y109.633 E.05403
G1 X112.038 Y108.602 E.03395
G1 X111.687 Y106.94 E.05326
G1 X111.573 Y105.839 E.03471
G1 X111.573 Y104.161 E.05261
G1 X111.687 Y103.06 E.03471
G1 X112.038 Y101.398 E.05326
G1 X112.774 Y99.389 E.06708
G1 X113.526 Y97.976 E.05019
G1 X114.108 Y97.102 E.03292
G1 X115.192 Y95.798 E.05317
M204 S1000
G1 X115.482 Y96.039 F10800
M204 S800
G1 F1200
G1 X115.511 Y96.004 E.00143
G1 X116.273 Y95.262 E.03335
G1 X117.58 Y94.234 E.05214
G1 X119.363 Y93.202 E.06459
G1 X120.822 Y92.611 E.04936
G1 X122.82 Y92.107 E.06461
G1 X124.47 Y91.935 E.05201
G1 X125.53 Y91.935 E.03324
G1 X127.18 Y92.107 E.05201
G1 X129.178 Y92.611 E.06461
G1 X130.637 Y93.202 E.04936
G1 X131.654 Y93.744 E.03613
G1 X132.959 Y94.625 E.04937
G1 X134.489 Y96.004 E.06458
G1 X135.502 Y97.21 E.04938
G1 X136.595 Y98.956 E.06459
G1 X137.279 Y100.502 E.05301
G1 X137.596 Y101.489 E.0325
G1 X137.941 Y103.122 E.05233
G1 X138.05 Y104.174 E.03316
G1 X138.05 Y105.826 E.0518
G1 X137.928 Y106.954 E.03557
G1 X137.596 Y108.511 E.04992
G1 X136.887 Y110.445 E.06459
G1 X136.147 Y111.835 E.04937
G1 X135.588 Y112.674 E.03161
G1 X134.489 Y113.996 E.0539
G1 X133.727 Y114.738 E.03335
G1 X132.42 Y115.766 E.05214
G1 X130.637 Y116.798 E.06459
G1 X129.178 Y117.389 E.04936
G1 X127.18 Y117.893 E.06461
G1 X125.53 Y118.065 E.05201
G1 X124.47 Y118.065 E.03324
G1 X122.82 Y117.893 E.05201
G1 X120.822 Y117.389 E.06461
G1 X119.363 Y116.798 E.04936
G1 X118.346 Y116.256 E.03613
G1 X117.041 Y115.375 E.04937
G1 X115.511 Y113.996 E.06458
G1 X114.498 Y112.79 E.04938
G1 X113.405 Y111.044 E.06459
G1 X112.721 Y109.498 E.05301
G1 X112.404 Y108.511 E.0325
G1 X112.059 Y106.878 E.05233
G1 X111.95 Y105.826 E.03316
G1 X111.95 Y104.174 E.0518
G1 X112.072 Y103.046 E.03557
G1 X112.404 Y101.489 E.04992
G1 X113.113 Y99.555 E.06459
M73 P0 R45
G1 X113.853 Y98.165 E.04937
G1 X114.412 Y97.326 E.03161
G1 X115.443 Y96.085 E.05059
M204 S1000
; printing object collar.stl id:0 copy 0
;WIPE_START
G1 F8640
G1 X115.482 Y96.039 E-.01393
G1 X115.511 Y96.004 E-.0105
G1 X116.273 Y95.262 E-.24558
G1 X117.58 Y94.234 E-.38395
G1 X118.127 Y93.917 E-.14604
;WIPE_END
G1 Z.6 F720
G1 X125.689 Y98.618 F10800
G1 Z.2 F720
G1 E.8 F2100
M204 S800
;TYPE:Support material
G1 F1200
G1 X126.772 Y98.83 E.0346
G1 X127.803 Y99.225 E.03462
G1 X128.751 Y99.79 E.0346
G1 X129.957 Y100.921 E.05184
G1 X130.582 Y101.83 E.03459
G1 X131.207 Y103.361 E.05185
G1 X131.396 Y104.448 E.03459
G1 X131.396 Y105.552 E.03462
G1 X131.207 Y106.639 E.03459
G1 X130.834 Y107.678 E.03461
G1 X130.289 Y108.638 E.03461
G1 X129.185 Y109.868 E.05182
G1 X128.289 Y110.513 E.03462
G1 X127.296 Y110.995 E.03461
G1 X125.689 Y111.382 E.05183
G1 X124.586 Y111.406 E.03459
G1 X123.495 Y111.241 E.0346
G1 X122.448 Y110.891 E.03461
G1 X121.028 Y110.044 E.05184
G1 X120.223 Y109.289 E.0346
G1 X119.559 Y108.407 E.03462
G1 X119.056 Y107.425 E.03459
G1 X118.728 Y106.371 E.03461
G1 X118.586 Y104.724 E.05183
G1 X118.728 Y103.629 E.03462
G1 X119.056 Y102.575 E.03461
G1 X119.872 Y101.138 E.05181
G1 X120.609 Y100.317 E.03459
G1 X121.477 Y99.634 E.03463
G1 X122.964 Y98.912 E.05183
G1 X124.037 Y98.653 E.03461
G1 X125.633 Y98.614 E.05006
M204 S1000
G1 X130.866 Y107.152 F10800
M204 S800
G1 F1200
G1 X130.866 Y103.407 E.11742
G1 X130.447 Y102.31 E.03682
G1 X130.447 Y107.69 E.16869
G1 X130.028 Y108.416 E.02628
G1 X130.028 Y101.584 E.21421
G1 X129.609 Y101.041 E.0215
G1 X129.609 Y108.959 E.24826
G1 X129.19 Y109.398 E.01903
G1 X129.19 Y100.602 E.27579
G1 X128.771 Y100.238 E.0174
G1 X128.771 Y109.762 E.29862
G1 X128.352 Y110.066 E.01623
G1 X128.352 Y99.934 E.31768
G1 X127.933 Y99.68 E.01536
G1 X127.933 Y110.32 E.33361
G1 X127.514 Y110.531 E.01471
G1 X127.514 Y99.469 E.34684
G1 X127.175 Y99.322 E.01159
G1 X127.095 Y99.296 E.00264
G1 X127.095 Y110.704 E.35769
G1 X126.676 Y110.844 E.01385
G1 X126.676 Y99.156 E.36647
G1 X126.257 Y99.055 E.01351
G1 X126.257 Y110.945 E.3728
G1 X125.838 Y111.017 E.01333
G1 X125.838 Y98.983 E.37732
G1 X125.419 Y98.94 E.01321
G1 X125.419 Y111.06 E.38001
G1 X125 Y111.076 E.01315
M73 Q0 S45
G1 X125 Y98.924 E.38102
G1 X124.581 Y98.936 E.01314
G1 X124.581 Y111.064 E.38026
G1 X124.162 Y111.019 E.01321
G1 X124.162 Y98.981 E.37744
G1 X123.743 Y99.056 E.01335
G1 X123.743 Y110.944 E.37274
G1 X123.324 Y110.839 E.01354
M73 P1 R45
M73 Q1 S45
G1 X123.324 Y99.161 E.36616
G1 X122.905 Y99.298 E.01382
G1 X122.905 Y110.702 E.35756
G1 X122.486 Y110.532 E.01418
G1 X122.486 Y99.468 E.3469
G1 X122.067 Y99.677 E.01468
G1 X122.067 Y110.323 E.3338
G1 X121.648 Y110.072 E.01531
G1 X121.648 Y99.928 E.31806
G1 X121.229 Y100.231 E.01621
G1 X121.229 Y109.769 E.29906
G1 X120.81 Y109.403 E.01744
G1 X120.81 Y100.597 E.27611
G1 X120.391 Y101.041 E.01914
G1 X120.391 Y108.959 E.24826
G1 X119.972 Y108.409 E.02168
G1 X119.972 Y101.591 E.21377
G1 X119.553 Y102.305 E.02596
G1 X119.553 Y107.695 E.169
G1 X119.134 Y106.579 E.03738
G1 X119.134 Y102.859 E.11664
M204 S1000
;WIPE_START
G1 F8640
G1 X119.134 Y106.323 E-.8
;WIPE_END
G1 Z.6 F720
G1 X134.544 Y102.665 F10800
G1 Z.2 F720
G1 E.8 F2100
M204 S800
;TYPE:Perimeter
;WIDTH:0.419999
G1 F1200
G1 X134.622 Y102.985 E.01033
G1 X134.741 Y103.67 E.0218
G1 X134.81 Y104.352 E.02149
G1 X134.828 Y105.107 E.02368
G1 X134.786 Y105.897 E.0248
G1 X134.729 Y106.413 E.01628
G1 X134.609 Y107.08 E.02125
G1 X134.44 Y107.745 E.02151
G1 X134.215 Y108.425 E.02246
G1 X133.899 Y109.17 E.02537
G1 X133.578 Y109.796 E.02206
G1 X133.315 Y110.246 E.01634
G1 X132.934 Y110.806 E.02124
G1 X132.509 Y111.345 E.02152
G1 X131.952 Y111.947 E.02572
G1 X131.449 Y112.416 E.02156
G1 X131.021 Y112.772 E.01746
G1 X130.471 Y113.168 E.02125
G1 X129.88 Y113.534 E.0218
G1 X129.194 Y113.889 E.02422
G1 X128.485 Y114.189 E.02414
G1 X128.009 Y114.359 E.01585
G1 X127.34 Y114.549 E.02181
G1 X126.67 Y114.688 E.02145
G1 X125.941 Y114.785 E.02306
G1 X125.151 Y114.826 E.0248
G1 X124.619 Y114.824 E.01668
G1 X123.928 Y114.772 E.02173
G1 X123.257 Y114.675 E.02126
G1 X122.576 Y114.527 E.02185
G1 X121.785 Y114.287 E.02592
G1 X121.158 Y114.046 E.02106
G1 X120.659 Y113.821 E.01716
G1 X120.047 Y113.492 E.02179
G1 X119.474 Y113.131 E.02123
G1 X118.833 Y112.653 E.02507
G1 X118.313 Y112.202 E.02158
G1 X117.899 Y111.799 E.01812
G1 X117.443 Y111.288 E.02147
G1 X117.027 Y110.752 E.02127
G1 X116.608 Y110.117 E.02385
G1 X116.226 Y109.427 E.02473
G1 X116.006 Y108.97 E.0159
G1 X115.748 Y108.325 E.02178
G1 X115.539 Y107.673 E.02147
G1 X115.371 Y106.979 E.02239
G1 X115.241 Y106.16 E.026
G1 X115.184 Y105.475 E.02155
G1 X115.169 Y104.971 E.01581
G1 X115.196 Y104.277 E.02178
G1 X115.271 Y103.587 E.02176
G1 X115.418 Y102.811 E.02476
G1 X115.595 Y102.146 E.02158
G1 X115.777 Y101.596 E.01816
G1 X116.033 Y100.969 E.02123
G1 X116.336 Y100.354 E.0215
G1 X116.722 Y99.7 E.02381
G1 X117.175 Y99.055 E.02471
G1 X117.491 Y98.655 E.01598
G1 X117.951 Y98.147 E.02149
G1 X118.453 Y97.666 E.0218
G1 X119.001 Y97.212 E.02231
G1 X119.68 Y96.738 E.02596
G1 X120.271 Y96.385 E.02158
G1 X120.726 Y96.146 E.01611
G1 X121.354 Y95.87 E.02151
G1 X121.991 Y95.641 E.02122
G1 X122.806 Y95.42 E.02648
G1 X123.481 Y95.29 E.02155
G1 X124.002 Y95.22 E.01648
G1 X124.696 Y95.174 E.02181
G1 X125.388 Y95.177 E.0217
G1 X126.155 Y95.239 E.02413
G1 X126.835 Y95.344 E.02157
G1 X127.414 Y95.47 E.01858
G1 X128.08 Y95.664 E.02175
G1 X128.716 Y95.898 E.02125
G1 X129.391 Y96.206 E.02326
G1 X130.095 Y96.596 E.02523
G1 X130.526 Y96.869 E.016
G1 X131.08 Y97.274 E.02152
G1 X131.61 Y97.722 E.02176
G1 X132.105 Y98.206 E.02171
G1 X132.649 Y98.83 E.02596
G1 X133.062 Y99.38 E.02157
G1 X133.359 Y99.824 E.01675
G1 X133.699 Y100.42 E.02151
G1 X133.994 Y101.03 E.02125
G1 X134.286 Y101.779 E.02521
G1 X134.488 Y102.436 E.02155
G1 X134.53 Y102.606 E.00549
M204 S1000
G1 X134.91 Y102.575 F10800
M204 S800
;TYPE:External perimeter
G1 F1200
G1 X134.994 Y102.92 E.01113
G1 X135.116 Y103.631 E.02262
G1 X135.187 Y104.339 E.02231
G1 X135.205 Y105.12 E.02449
G1 X135.157 Y105.975 E.02685
G1 X135.1 Y106.478 E.01587
G1 X134.975 Y107.171 E.02208
G1 X134.799 Y107.861 E.02233
G1 X134.564 Y108.566 E.0233
G1 X134.238 Y109.335 E.02619
G1 X133.904 Y109.984 E.02289
G1 X133.627 Y110.457 E.01719
G1 X133.231 Y111.038 E.02205
G1 X132.79 Y111.597 E.02232
G1 X132.214 Y112.218 E.02656
G1 X131.692 Y112.705 E.02238
G1 X131.242 Y113.077 E.01831
G1 X130.671 Y113.488 E.02206
G1 X130.057 Y113.867 E.02262
G1 X129.347 Y114.234 E.02506
G1 X128.614 Y114.543 E.02494
G1 X128.113 Y114.722 E.01668
G1 X127.419 Y114.917 E.0226
G1 X126.722 Y115.062 E.02232
G1 X125.967 Y115.161 E.02388
G1 X125.114 Y115.203 E.02678
G1 X124.398 Y115.186 E.02246
G1 X123.875 Y115.146 E.01645
G1 X123.178 Y115.044 E.02209
G1 X122.472 Y114.89 E.02266
G1 X121.656 Y114.641 E.02675
G1 X121.005 Y114.39 E.02188
G1 X120.481 Y114.154 E.01802
G1 X119.847 Y113.812 E.02259
G1 X119.253 Y113.436 E.02204
G1 X118.591 Y112.942 E.0259
G1 X117.984 Y112.409 E.02533
G1 X117.619 Y112.051 E.01603
G1 X117.145 Y111.52 E.02232
G1 X116.715 Y110.963 E.02206
G1 X116.281 Y110.305 E.02471
G1 X115.87 Y109.558 E.02673
G1 X115.581 Y108.924 E.02185
G1 X115.39 Y108.442 E.01626
G1 X115.173 Y107.764 E.02232
G1 X115 Y107.045 E.02319
G1 X114.866 Y106.199 E.02686
G1 X114.807 Y105.488 E.02237
G1 X114.792 Y104.958 E.01662
G1 X114.821 Y104.237 E.02262
G1 X114.9 Y103.522 E.02255
G1 X115.053 Y102.72 E.0256
G1 X115.266 Y101.94 E.02535
G1 X115.427 Y101.455 E.01602
G1 X115.694 Y100.804 E.02206
G1 X116.01 Y100.165 E.02235
G1 X116.409 Y99.489 E.02461
G1 X116.877 Y98.823 E.02552
G1 X117.21 Y98.402 E.01683
G1 X117.69 Y97.875 E.02235
G1 X118.21 Y97.377 E.02258
G1 X118.779 Y96.907 E.02314
G1 X119.48 Y96.418 E.0268
G1 X120.094 Y96.052 E.02241
G1 X120.573 Y95.802 E.01694
G1 X121.225 Y95.516 E.02232
G1 X121.887 Y95.278 E.02206
G1 X122.728 Y95.051 E.02731
G1 X123.429 Y94.917 E.02238
G1 X123.975 Y94.844 E.01727
G1 X124.696 Y94.797 E.02265
G1 X125.415 Y94.801 E.02254
G1 X126.207 Y94.866 E.02492
G1 X127.008 Y94.995 E.02544
G1 X127.518 Y95.107 E.01637
G1 X128.209 Y95.309 E.02257
G1 X128.869 Y95.553 E.02206
G1 X129.568 Y95.873 E.0241
G1 X130.326 Y96.296 E.02722
G1 X130.909 Y96.681 E.02191
G1 X131.322 Y96.985 E.01608
G1 X131.872 Y97.451 E.0226
G1 X132.385 Y97.953 E.0225
G1 X132.946 Y98.598 E.0268
G1 X133.375 Y99.17 E.02242
G1 X133.685 Y99.636 E.01755
G1 X134.038 Y100.254 E.02232
G1 X134.343 Y100.888 E.02206
G1 X134.644 Y101.663 E.02607
G1 X134.854 Y102.345 E.02237
G1 X134.896 Y102.517 E.00555
M204 S1000
;WIPE_START
G1 F8640
G1 X134.91 Y102.575 E-.01378
G1 X134.994 Y102.92 E-.08199
G1 X135.116 Y103.631 E-.16657
G1 X135.187 Y104.339 E-.1643
G1 X135.205 Y105.12 E-.18038
G1 X135.158 Y105.955 E-.19298
;WIPE_END
G1 Z.6 F720
G1 X121.707 Y111.936 F10800
G1 Z.2 F720
G1 E.8 F2100
M204 S800
;TYPE:Perimeter
G1 F1200
G1 X121.633 Y111.903 E.00254
G1 X121.169 Y111.658 E.01645
G1 X120.733 Y111.392 E.01601
G1 X120.257 Y111.049 E.0184
G1 X119.844 Y110.696 E.01703
G1 X119.468 Y110.328 E.0165
G1 X119.121 Y109.943 E.01625
G1 X118.803 Y109.544 E.016
G1 X118.492 Y109.09 E.01725
G1 X118.201 Y108.58 E.01841
G1 X117.98 Y108.118 E.01606
G1 X117.784 Y107.629 E.01652
G1 X117.621 Y107.139 E.01619
G1 X117.492 Y106.65 E.01586
G1 X117.385 Y106.035 E.01957
G1 X117.336 Y105.519 E.01625
G1 X117.319 Y105.008 E.01603
G1 X117.336 Y104.481 E.01653
G1 X117.386 Y103.957 E.0165
G1 X117.484 Y103.389 E.01807
G1 X117.621 Y102.861 E.0171
G1 X117.787 Y102.361 E.01652
G1 X117.978 Y101.888 E.01599
G1 X118.201 Y101.42 E.01625
G1 X118.471 Y100.943 E.01719
G1 X118.799 Y100.463 E.01823
G1 X119.303 Y99.84 E.02513
G1 X119.721 Y99.413 E.01874
G1 X120.221 Y98.98 E.02074
G1 X120.726 Y98.613 E.01957
G1 X121.176 Y98.338 E.01654
G1 X121.634 Y98.096 E.01624
G1 X122.107 Y97.884 E.01625
G1 X122.581 Y97.704 E.0159
G1 X123.186 Y97.531 E.01973
G1 X123.685 Y97.432 E.01595
G1 X124.193 Y97.362 E.01608
G1 X124.718 Y97.324 E.0165
G1 X125.245 Y97.319 E.01652
G1 X125.801 Y97.355 E.01747
G1 X126.359 Y97.438 E.01769
G1 X126.865 Y97.549 E.01624
G1 X127.371 Y97.694 E.0165
G1 X127.852 Y97.865 E.01601
G1 X128.337 Y98.075 E.01657
G1 X128.872 Y98.363 E.01905
G1 X129.304 Y98.638 E.01606
G1 X129.723 Y98.943 E.01625
G1 X130.128 Y99.279 E.0165
G1 X130.508 Y99.638 E.01639
G1 X130.919 Y100.096 E.01929
G1 X131.228 Y100.502 E.016
G1 X131.516 Y100.933 E.01625
G1 X131.775 Y101.379 E.01617
G1 X132.002 Y101.829 E.0158
G1 X132.228 Y102.384 E.01879
G1 X132.392 Y102.906 E.01716
G1 X132.513 Y103.402 E.01601
G1 X132.605 Y103.921 E.01653
G1 X132.664 Y104.436 E.01625
G1 X132.687 Y104.98 E.01707
G1 X132.664 Y105.564 E.01833
G1 X132.604 Y106.087 E.01651
G1 X132.514 Y106.59 E.01602
G1 X132.392 Y107.093 E.01623
G1 X132.244 Y107.572 E.01572
G1 X132.008 Y108.155 E.01972
G1 X131.775 Y108.62 E.01631
G1 X131.511 Y109.074 E.01647
G1 X131.228 Y109.498 E.01598
G1 X130.919 Y109.904 E.016
G1 X130.508 Y110.362 E.01929
G1 X130.122 Y110.726 E.01664
G1 X129.723 Y111.057 E.01625
G1 X129.311 Y111.358 E.016
G1 X128.867 Y111.641 E.01651
G1 X128.373 Y111.907 E.01759
G1 X127.852 Y112.135 E.01783
G1 X127.369 Y112.306 E.01607
G1 X126.865 Y112.451 E.01644
G1 X126.359 Y112.562 E.01624
G1 X125.84 Y112.641 E.01646
G1 X125.245 Y112.681 E.0187
G1 X124.718 Y112.676 E.01652
G1 X124.193 Y112.638 E.0165
