; generated by PrusaSlicer 2.7.0+MacOS-arm64 on 2023-12-06 at 23:48:13 UTC


;
;
; 

; external perimeters extrusion width = 0.60mm
; perimeters extrusion width = 0.50mm
; infill extrusion width = 0.50mm
; solid infill extrusion width = 0.50mm
; top infill extrusion width = 0.45mm
; first layer extrusion width = 0.42mm

M73 P0 R118
M73 Q0 S119
M201 X1000 Y1000 Z200 E5000 ; sets maximum accelerations, mm/sec^2
M203 X200 Y200 Z12 E120 ; sets maximum feedrates, mm / sec
M204 S1250 T1250 ; sets acceleration (S) and retract acceleration (R), mm/sec^2
M205 X8.00 Y8.00 Z0.40 E4.50 ; sets the jerk limits, mm/sec
M205 S0 T0 ; sets the minimum extruding and travel feed rate, mm/sec

; printing object SOL_HOLE.stl id:0 copy 0
; stop printing object SOL_HOLE.stl id:0 copy 0

;TYPE:Custom
M862.3 P "MK3S" ; printer model check
M862.1 P0.4 ; nozzle diameter check
M115 U3.12.2 ; tell printer latest fw version
G90 ; use absolute coordinates
M83 ; extruder relative mode
M104 S215 ; set extruder temp
M140 S60 ; set bed temp
M190 S60 ; wait for bed temp
M109 S215 ; wait for extruder temp
G28 W ; home all without mesh bed level
G80 ; mesh bed leveling

G1 Z0.2 F720
G1 Y-3 F1000 ; go outside print area
G92 E0
G1 X60 E9 F1000 ; intro line
G1 X100 E12.5 F1000 ; intro line

G92 E0
M221 S95

; Don't change E values below. Excessive value can damage the printer.

M907 E538 ; set extruder motor current
G21 ; set units to millimeters
G90 ; use absolute coordinates
M83 ; use relative distances for extrusion
M900 K0.05 ; Filament gcode LA 1.5
M900 K30 ; Filament gcode LA 1.0
M107
;LAYER_CHANGE
;Z:0.2
;HEIGHT:0.2
;BEFORE_LAYER_CHANGE
G92 E0.0
;0.2


G1 E-.8 F2100
G1 Z.2 F720
;AFTER_LAYER_CHANGE
;0.2
G1 X44.097 Y45.545 F10800
G1 Z.2 F720
G1 E.8 F2100
M204 S800
;TYPE:Skirt/Brim
;WIDTH:0.42
G1 F1200
G1 X44.84 Y44.905 E.03075
G1 X45.299 Y44.633 E.01673
G1 X46.215 Y44.284 E.03073
G1 X46.867 Y44.162 E.0208
G1 X222.781 Y24.834 E5.54885
G1 X223.95 Y24.852 E.03666
G1 X224.899 Y25.1 E.03075
G1 X225.308 Y25.283 E.01405
G1 X226.126 Y25.823 E.03073
G1 X226.514 Y26.189 E.01672
G1 X226.803 Y26.532 E.01406
G1 X227.305 Y27.374 E.03074
G1 X227.659 Y28.568 E.03905
G1 X235.627 Y85.307 E1.79647
M73 Q0 S118
G1 X235.64 Y148.502 E1.98143
G1 X235.391 Y149.737 E.0395
G1 X234.898 Y150.721 E.03451
G1 X212.849 Y183.271 E1.23269
G1 X212.352 Y183.867 E.02433
G1 X211.523 Y184.532 E.03332
G1 X210.558 Y184.977 E.03332
G1 X209.224 Y185.193 E.04237
G1 X68.12 Y185.193 E4.42422
G1 X67.293 Y185.105 E.02608
G1 X66.694 Y184.945 E.01944
G1 X65.695 Y184.45 E.03496
G1 X15.966 Y147.159 E1.94891
G1 X15.285 Y146.459 E.03062
M73 P0 R117
G1 X14.96 Y145.982 E.0181
G1 X14.507 Y144.925 E.03606
G1 X14.35 Y143.769 E.03658
G1 X14.349 Y124.719 E.5973
G1 X14.512 Y123.542 E.03726
G1 X43.203 Y46.979 E2.5636
G1 X43.515 Y46.333 E.02249
G1 X44.062 Y45.593 E.02885
M204 S1000
; printing object SOL_HOLE.stl id:0 copy 0
;WIPE_START
G1 F8640
G1 X44.097 Y45.545 E-.01372
G1 X44.84 Y44.905 E-.22643
G1 X45.299 Y44.633 E-.1232
G1 X46.215 Y44.284 E-.22634
G1 X46.867 Y44.162 E-.15316
G1 X47.113 Y44.135 E-.05715
;WIPE_END
G1 Z.6 F720
G1 X229.04 Y146.518 F10800
G1 Z.2 F720
G1 E.8 F2100
M204 S800
;TYPE:Perimeter
;WIDTH:0.419999
G1 F1200
G1 X228.971 Y146.529 E.00219
G1 X214.528 Y146.529 E.45285
G1 X214.311 Y146.485 E.00694
G1 X214.226 Y146.441 E.003
G1 X214.05 Y146.266 E.00778
G1 X213.967 Y146.037 E.00764
G1 X213.962 Y145.963 E.00233
G1 X213.962 Y131.52 E.45285
G1 X214.03 Y131.252 E.00867
G1 X214.176 Y131.078 E.00712
G1 X214.383 Y130.974 E.00726
G1 X214.528 Y130.955 E.00459
G1 X228.971 Y130.955 E.45285
G1 X229.263 Y131.036 E.0095
G1 X229.396 Y131.147 E.00543
G1 X229.498 Y131.315 E.00616
G1 X229.536 Y131.52 E.00654
G1 X229.536 Y145.963 E.45285
G1 X229.505 Y146.148 E.00588
G1 X229.421 Y146.305 E.00558
G1 X229.306 Y146.418 E.00506
G1 X229.138 Y146.503 E.0059
G1 X229.099 Y146.509 E.00124
M204 S1000
G1 X228.971 Y146.152 F10800
M204 S800
;TYPE:External perimeter
G1 F1200
G1 X214.528 Y146.152 E.45285
G1 X214.427 Y146.122 E.0033
G1 X214.339 Y145.963 E.0057
G1 X214.339 Y131.52 E.45285
G1 X214.41 Y131.373 E.00512
G1 X214.528 Y131.332 E.00392
G1 X228.971 Y131.332 E.45285
G1 X229.112 Y131.396 E.00486
G1 X229.159 Y131.52 E.00416
G1 X229.159 Y145.963 E.45285
G1 X229.121 Y146.077 E.00377
G1 X229.024 Y146.125 E.00339
M204 S1000
;WIPE_START
G1 F8640
G1 X228.971 Y146.152 E-.01373
G1 X225.566 Y146.152 E-.78627
;WIPE_END
G1 Z.6 F720
G1 X191.916 Y146.507 F10800
G1 Z.2 F720
G1 E.8 F2100
M204 S800
;TYPE:Perimeter
G1 F1200
G1 X191.912 Y146.463 E.00139
G1 X191.912 Y132.02 E.45285
G1 X191.986 Y131.741 E.00905
G1 X192.139 Y131.568 E.00724
G1 X192.429 Y131.457 E.00974
G1 X192.478 Y131.455 E.00154
G1 X206.921 Y131.455 E.45285
G1 X207.186 Y131.521 E.00856
G1 X207.4 Y131.719 E.00914
G1 X207.482 Y131.946 E.00757
G1 X207.486 Y132.02 E.00232
G1 X207.486 Y146.463 E.45285
G1 X207.434 Y146.701 E.00764
G1 X207.248 Y146.924 E.0091
G1 X206.997 Y147.023 E.00846
G1 X206.921 Y147.029 E.00239
G1 X192.43 Y147.027 E.45435
G1 X192.17 Y146.937 E.00863
G1 X192.043 Y146.825 E.00531
G1 X191.923 Y146.566 E.00895
M204 S1000
G1 X192.289 Y146.463 F10800
M204 S800
;TYPE:External perimeter
G1 F1200
G1 X192.289 Y132.02 E.45285
G1 X192.355 Y131.878 E.00491
G1 X192.478 Y131.832 E.00412
G1 X206.921 Y131.832 E.45285
G1 X207.058 Y131.891 E.00468
G1 X207.109 Y132.02 E.00435
G1 X207.109 Y146.463 E.45285
G1 X207.047 Y146.603 E.0048
G1 X206.921 Y146.652 E.00424
G1 X192.462 Y146.651 E.45335
G1 X192.333 Y146.584 E.00456
G1 X192.31 Y146.519 E.00216
M204 S1000
;WIPE_START
G1 F8640
G1 X192.289 Y146.463 E-.01381
G1 X192.289 Y143.058 E-.78619
;WIPE_END
G1 Z.6 F720
G1 X207.326 Y163.709 F10800
G1 Z.2 F720
G1 E.8 F2100
M204 S800
;TYPE:Perimeter
G1 F1200
G1 X207.405 Y163.778 E.00329
G1 X207.486 Y164.07 E.0095
G1 X207.486 Y178.513 E.45285
G1 X207.389 Y178.83 E.01039
G1 X207.173 Y179.019 E.009
G1 X206.921 Y179.078 E.00811
G1 X192.478 Y179.078 E.45285
G1 X192.272 Y179.04 E.00657
G1 X192.105 Y178.938 E.00614
G1 X191.937 Y178.676 E.00976
G1 X191.912 Y178.513 E.00517
G1 X191.912 Y164.07 E.45285
G1 X192.005 Y163.76 E.01015
G1 X192.222 Y163.566 E.00913
G1 X192.438 Y163.506 E.00703
G1 X206.921 Y163.504 E.4541
G1 X207.15 Y163.553 E.00734
G1 X207.281 Y163.669 E.00549
M204 S1000
G1 X207.068 Y163.953 F10800
M204 S800
;TYPE:External perimeter
G1 F1200
G1 X207.109 Y164.07 E.00389
G1 X207.109 Y178.513 E.45285
G1 X207.066 Y178.633 E.004
G1 X206.921 Y178.701 E.00502
G1 X192.478 Y178.701 E.45285
G1 X192.354 Y178.655 E.00415
G1 X192.289 Y178.513 E.0049
G1 X192.289 Y164.07 E.45285
G1 X192.364 Y163.92 E.00526
G1 X192.465 Y163.882 E.00338
G1 X206.921 Y163.881 E.45326
G1 X207.014 Y163.927 E.00325
M204 S1000
;WIPE_START
G1 F8640
G1 X207.068 Y163.953 E-.01384
G1 X207.109 Y164.07 E-.02863
G1 X207.109 Y167.351 E-.75753
;WIPE_END
G1 Z.6 F720
G1 X188.412 Y178.602 F10800
G1 Z.2 F720
G1 E.8 F2100
M204 S800
;TYPE:Perimeter
G1 F1200
G1 X188.355 Y178.805 E.00661
G1 X188.244 Y178.938 E.00543
G1 X187.969 Y179.07 E.00956
G1 X187.871 Y179.078 E.00308
G1 X173.428 Y179.078 E.45285
G1 X173.211 Y179.035 E.00694
G1 X173.038 Y178.922 E.00648
G1 X172.876 Y178.637 E.01028
G1 X172.863 Y178.291 E.01086
G1 X172.863 Y164.07 E.44589
G1 X172.935 Y163.792 E.009
G1 X173.092 Y163.615 E.00742
G1 X173.356 Y163.509 E.00892
G1 X177.011 Y163.504 E.1146
G1 X187.871 Y163.504 E.34051
G1 X188.127 Y163.566 E.00826
G1 X188.344 Y163.76 E.00913
G1 X188.437 Y164.07 E.01015
G1 X188.437 Y178.513 E.45285
G1 X188.428 Y178.544 E.00101
M204 S1000
G1 X188.06 Y178.513 F10800
M204 S800
;TYPE:External perimeter
G1 F1200
G1 X187.995 Y178.655 E.0049
G1 X187.871 Y178.701 E.00415
G1 X173.428 Y178.701 E.45285
G1 X173.298 Y178.649 E.00439
G1 X173.24 Y178.513 E.00464
G1 X173.24 Y164.07 E.45285
G1 X173.306 Y163.926 E.00497
G1 X173.428 Y163.881 E.00408
G1 X177.011 Y163.881 E.11234
G1 X187.871 Y163.881 E.34051
G1 X188.005 Y163.938 E.00457
G1 X188.06 Y164.07 E.00448
G1 X188.06 Y178.453 E.45097
M204 S1000
;WIPE_START
G1 F8640
G1 X188.06 Y178.513 E-.01385
G1 X187.995 Y178.655 E-.03606
G1 X187.871 Y178.701 E-.03054
G1 X184.755 Y178.701 E-.71955
;WIPE_END
G1 Z.6 F720
G1 X164.903 Y163.524 F10800
G1 Z.2 F720
G1 E.8 F2100
M204 S800
;TYPE:Perimeter
G1 F1200
G1 X165.074 Y163.564 E.00551
G1 X165.284 Y163.744 E.00867
G1 X165.381 Y163.991 E.00832
G1 X165.387 Y164.07 E.00248
G1 X165.387 Y178.513 E.45285
G1 X165.32 Y178.779 E.0086
G1 X165.211 Y178.922 E.00564
G1 X164.919 Y179.07 E.01026
G1 X164.821 Y179.078 E.00308
G1 X150.378 Y179.078 E.45285
G1 X150.173 Y179.04 E.00654
G1 X150.006 Y178.938 E.00614
G1 X149.837 Y178.676 E.00978
G1 X149.813 Y178.513 E.00517
G1 X149.813 Y164.07 E.45285
G1 X149.849 Y163.871 E.00634
M73 Q1 S118
G1 X150.003 Y163.647 E.00852
G1 X150.17 Y163.544 E.00615
G1 X150.378 Y163.504 E.00664
G1 X164.821 Y163.504 E.45285
G1 X164.845 Y163.51 E.00078
M73 P1 R117
M204 S1000
G1 X164.821 Y163.881 F10800
M204 S800
;TYPE:External perimeter
G1 F1200
G1 X164.965 Y163.948 E.00498
G1 X165.01 Y164.07 E.00408
G1 X165.01 Y178.513 E.45285
G1 X164.951 Y178.649 E.00465
G1 X164.821 Y178.701 E.00439
G1 X150.378 Y178.701 E.45285
G1 X150.254 Y178.655 E.00415
G1 X150.19 Y178.513 E.00488
G1 X150.19 Y164.07 E.45285
G1 X150.253 Y163.929 E.00484
G1 X150.378 Y163.881 E.0042
G1 X164.761 Y163.881 E.45097
M204 S1000
;WIPE_START
G1 F8640
G1 X164.821 Y163.881 E-.01385
G1 X164.965 Y163.948 E-.03667
G1 X165.01 Y164.07 E-.03003
G1 X165.01 Y167.186 E-.71945
;WIPE_END
G1 Z.6 F720
G1 X169.296 Y154.253 F10800
G1 Z.2 F720
G1 E.8 F2100
M204 S800
;TYPE:Perimeter
G1 F1200
G1 X169.271 Y154.183 E.00233
G1 X169.225 Y153.693 E.01543
G1 X169.309 Y153.208 E.01543
G1 X169.488 Y152.815 E.01354
G1 X169.829 Y152.382 E.01728
G1 X170.231 Y152.098 E.01543
G1 X170.693 Y151.928 E.01544
G1 X171.122 Y151.886 E.01352
G1 X171.668 Y151.966 E.0173
G1 X172.116 Y152.172 E.01546
G1 X172.494 Y152.486 E.01541
G1 X172.778 Y152.888 E.01543
G1 X172.949 Y153.35 E.01545
G1 X172.994 Y153.84 E.01543
G1 X172.91 Y154.326 E.01546
G1 X172.704 Y154.773 E.01543
G1 X172.39 Y155.151 E.01541
G1 X171.988 Y155.435 E.01543
G1 X171.506 Y155.608 E.01606
G1 X171.036 Y155.651 E.0148
G1 X170.551 Y155.567 E.01543
M73 Q1 S117
G1 X170.104 Y155.361 E.01543
G1 X169.725 Y155.047 E.01543
G1 X169.441 Y154.645 E.01543
G1 X169.317 Y154.309 E.01123
M204 S1000
G1 X169.643 Y154.122 F10800
M204 S800
;TYPE:External perimeter
G1 F1200
G1 X169.599 Y153.742 E.01199
G1 X169.657 Y153.352 E.01236
G1 X169.794 Y153.036 E.0108
G1 X170.059 Y152.681 E.01389
G1 X170.441 Y152.419 E.01452
G1 X170.743 Y152.301 E.01017
G1 X171.084 Y152.261 E.01077
G1 X171.524 Y152.314 E.0139
G1 X171.886 Y152.471 E.01237
G1 X172.195 Y152.716 E.01236
G1 X172.43 Y153.033 E.01237
G1 X172.575 Y153.399 E.01234
G1 X172.62 Y153.791 E.01237
G1 X172.562 Y154.181 E.01236
G1 X172.405 Y154.543 E.01237
G1 X172.16 Y154.852 E.01236
G1 X171.843 Y155.087 E.01237
G1 X171.457 Y155.234 E.01295
G1 X171.085 Y155.277 E.01174
G1 X170.695 Y155.219 E.01236
G1 X170.333 Y155.062 E.01237
G1 X170.024 Y154.817 E.01236
G1 X169.789 Y154.5 E.01237
G1 X169.662 Y154.179 E.01082
M204 S1000
;WIPE_START
G1 F8640
G1 X169.643 Y154.122 E-.01387
G1 X169.599 Y153.742 E-.08833
G1 X169.657 Y153.352 E-.09104
G1 X169.794 Y153.036 E-.07953
G1 X170.059 Y152.681 E-.10229
G1 X170.441 Y152.419 E-.10696
G1 X170.743 Y152.301 E-.07487
G1 X171.084 Y152.261 E-.07928
G1 X171.524 Y152.314 E-.10233
G1 X171.768 Y152.42 E-.0615
;WIPE_END
G1 Z.6 F720
G1 X187.946 Y133.968 F10800
G1 Z.2 F720
G1 E.8 F2100
M204 S800
;TYPE:Perimeter
G1 F1200
G1 X188.07 Y133.991 E.00395
G1 X188.323 Y134.181 E.00992
G1 X188.406 Y134.337 E.00554
G1 X188.437 Y134.52 E.00582
G1 X188.437 Y148.963 E.45285
G1 X188.37 Y149.23 E.00863
G1 X188.187 Y149.432 E.00855
G1 X187.871 Y149.529 E.01036
G1 X173.428 Y149.529 E.45285
G1 X173.178 Y149.47 E.00805
G1 X172.978 Y149.305 E.00813
G1 X172.927 Y149.224 E.003
G1 X172.863 Y148.963 E.00843
G1 X172.863 Y134.52 E.45285
G1 X172.936 Y134.241 E.00904
G1 X173.089 Y134.068 E.00724
G1 X173.379 Y133.957 E.00974
G1 X173.428 Y133.955 E.00154
G1 X187.871 Y133.955 E.45285
G1 X187.887 Y133.957 E.00051
M204 S1000
G1 X187.871 Y134.332 F10800
M204 S800
;TYPE:External perimeter
G1 F1200
G1 X188.022 Y134.407 E.00529
G1 X188.06 Y134.52 E.00374
G1 X188.06 Y148.963 E.45285
G1 X187.99 Y149.109 E.00508
G1 X187.871 Y149.152 E.00397
G1 X173.428 Y149.152 E.45285
G1 X173.295 Y149.097 E.00451
G1 X173.261 Y149.05 E.00182
G1 X173.24 Y148.963 E.00281
G1 X173.24 Y134.52 E.45285
G1 X173.305 Y134.378 E.0049
G1 X173.428 Y134.332 E.00412
G1 X187.811 Y134.332 E.45097
M204 S1000
;WIPE_START
G1 F8640
G1 X187.871 Y134.332 E-.01385
G1 X188.022 Y134.407 E-.03893
G1 X188.06 Y134.52 E-.02753
G1 X188.06 Y137.637 E-.71969
;WIPE_END
G1 Z.6 F720
G1 X168.847 Y152.015 F10800
G1 Z.2 F720
G1 E.8 F2100
M204 S800
;TYPE:Perimeter
G1 F1200
G1 X168.112 Y152.029 E.02305
G1 X154.378 Y152.029 E.43062
G1 X154.161 Y151.985 E.00694
G1 X153.926 Y151.802 E.00934
G1 X153.821 Y151.561 E.00824
G1 X153.813 Y151.463 E.00308
G1 X153.813 Y140.485 E.34421
G1 X153.813 Y137.02 E.10864
G1 X153.843 Y136.837 E.00581
G1 X154.039 Y136.568 E.01044
G1 X154.329 Y136.457 E.00974
G1 X168.821 Y136.455 E.45439
G1 X169.02 Y136.491 E.00634
G1 X169.274 Y136.681 E.00995
G1 X169.356 Y136.837 E.00553
G1 X169.387 Y137.02 E.00582
G1 X169.387 Y151.463 E.45285
G1 X169.358 Y151.641 E.00565
G1 X169.182 Y151.898 E.00977
G1 X168.951 Y152.013 E.00809
G1 X168.907 Y152.014 E.00138
M204 S1000
G1 X168.821 Y151.652 F10800
M204 S800
;TYPE:External perimeter
G1 F1200
G1 X154.378 Y151.652 E.45285
G1 X154.227 Y151.576 E.0053
G1 X154.19 Y151.463 E.00373
G1 X154.19 Y140.485 E.34421
G1 X154.19 Y137.02 E.10864
G1 X154.265 Y136.869 E.00529
G1 X154.378 Y136.832 E.00373
G1 X168.821 Y136.832 E.45285
G1 X168.972 Y136.907 E.00529
G1 X169.01 Y137.02 E.00374
G1 X169.01 Y151.463 E.45285
G1 X168.941 Y151.608 E.00503
G1 X168.878 Y151.631 E.0021
M204 S1000
;WIPE_START
G1 F8640
G1 X168.821 Y151.652 E-.01403
G1 X165.417 Y151.652 E-.78597
;WIPE_END
G1 Z.6 F720
G1 X150.327 Y122.91 F10800
G1 Z.2 F720
G1 E.8 F2100
M204 S800
;TYPE:Perimeter
G1 F1200
G1 X150.337 Y122.97 E.00191
G1 X150.337 Y137.413 E.45285
G1 X150.306 Y137.597 E.00585
G1 X150.111 Y137.866 E.01042
G1 X149.97 Y137.943 E.00504
G1 X149.771 Y137.979 E.00634
G1 X135.328 Y137.979 E.45285
G1 X135.13 Y137.943 E.00631
G1 X134.989 Y137.866 E.00504
G1 X134.865 Y137.738 E.00559
G1 X134.763 Y137.438 E.00994
G1 X134.763 Y122.97 E.45363
G1 X134.793 Y122.787 E.00581
G1 X134.989 Y122.518 E.01044
G1 X135.279 Y122.407 E.00974
G1 X135.328 Y122.405 E.00154
G1 X149.771 Y122.405 E.45285
G1 X149.97 Y122.441 E.00634
M73 P1 R116
G1 X150.224 Y122.631 E.00995
G1 X150.306 Y122.787 E.00553
G1 X150.317 Y122.85 E.00201
M204 S1000
G1 X149.96 Y122.97 F10800
M204 S800
;TYPE:External perimeter
G1 F1200
G1 X149.96 Y137.413 E.45285
G1 X149.884 Y137.564 E.0053
G1 X149.771 Y137.602 E.00374
G1 X135.262 Y137.59 E.45492
G1 X135.146 Y137.462 E.00542
G1 X135.14 Y136.565 E.02813
G1 X135.14 Y122.97 E.42626
G1 X135.215 Y122.819 E.00529
G1 X135.328 Y122.782 E.00373
G1 X149.771 Y122.782 E.45285
G1 X149.922 Y122.857 E.00529
G1 X149.941 Y122.913 E.00185
M204 S1000
;WIPE_START
G1 F8640
G1 X149.96 Y122.97 E-.01387
G1 X149.96 Y126.375 E-.78613
;WIPE_END
G1 Z.6 F720
G1 X135.219 Y141.48 F10800
G1 Z.2 F720
G1 E.8 F2100
M204 S800
;TYPE:Perimeter
G1 F1200
G1 X135.279 Y141.457 E.00201
G1 X135.328 Y141.455 E.00154
G1 X149.771 Y141.455 E.45285
G1 X149.97 Y141.491 E.00634
G1 X150.224 Y141.681 E.00995
G1 X150.306 Y141.837 E.00553
G1 X150.337 Y142.02 E.00582
G1 X150.337 Y156.463 E.45285
G1 X150.271 Y156.728 E.00856
G1 X150.073 Y156.942 E.00914
G1 X149.816 Y157.027 E.00849
G1 X135.328 Y157.029 E.45426
G1 X135.101 Y156.981 E.00727
G1 X134.924 Y156.859 E.00674
G1 X134.793 Y156.646 E.00784
G1 X134.763 Y156.463 E.00581
G1 X134.763 Y153.263 E.10033
G1 X134.763 Y142.02 E.35252
G1 X134.793 Y141.837 E.00581
G1 X134.989 Y141.568 E.01044
G1 X135.163 Y141.501 E.00585
M204 S1000
G1 X135.328 Y141.832 F10800
M204 S800
;TYPE:External perimeter
G1 F1200
G1 X149.771 Y141.832 E.45285
G1 X149.922 Y141.907 E.00529
G1 X149.96 Y142.02 E.00374
G1 X149.96 Y156.463 E.45285
G1 X149.9 Y156.601 E.00472
