; generated by PrusaSlicer 2.7.0+MacOS-arm64 on 2023-12-06 at 23:49:54 UTC


;
;
; 

; external perimeters extrusion width = 0.60mm
; perimeters extrusion width = 0.50mm
; infill extrusion width = 0.50mm
; solid infill extrusion width = 0.50mm
; top infill extrusion width = 0.45mm
; first layer extrusion width = 0.42mm

M73 P0 R118
M73 Q0 S119
M201 X1000 Y1000 Z200 E5000 ; sets maximum accelerations, mm/sec^2
M203 X200 Y200 Z12 E120 ; sets maximum feedrates, mm / sec
M204 S1250 T1250 ; sets acceleration (S) and retract acceleration (R), mm/sec^2
M205 X8.00 Y8.00 Z0.40 E4.50 ; sets the jerk limits, mm/sec
M205 S0 T0 ; sets the minimum extruding and travel feed rate, mm/sec

; printing object SOL_HOLE.stl id:0 copy 0
; stop printing object SOL_HOLE.stl id:0 copy 0

;TYPE:Custom
M862.3 P "MK3S" ; printer model check
M862.1 P0.4 ; nozzle diameter check
M115 U3.12.2 ; tell printer latest fw version
G90 ; use absolute coordinates
M83 ; extruder relative mode
M104 S215 ; set extruder temp
M140 S60 ; set bed temp
M190 S60 ; wait for bed temp
M109 S215 ; wait for extruder temp
G28 W ; home all without mesh bed level
G80 ; mesh bed leveling

G1 Z0.2 F720
G1 Y-3 F1000 ; go outside print area
G92 E0
G1 X60 E9 F1000 ; intro line
G1 X100 E12.5 F1000 ; intro line
M73 Q0 S118

G92 E0
M221 S95

; Don't change E values below. Excessive value can damage the printer.

M907 E538 ; set extruder motor current
G21 ; set units to millimeters
G90 ; use absolute coordinates
M83 ; use relative distances for extrusion
M900 K0.05 ; Filament gcode LA 1.5
M900 K30 ; Filament gcode LA 1.0
M107
;LAYER_CHANGE
;Z:0.2
;HEIGHT:0.2
;BEFORE_LAYER_CHANGE
G92 E0.0
;0.2


G1 E-.8 F2100
G1 Z.2 F720
;AFTER_LAYER_CHANGE
;0.2
G1 X35.909 Y47.886 F10800
G1 Z.2 F720
G1 E.8 F2100
M204 S800
;TYPE:Skirt/Brim
;WIDTH:0.42
G1 F1200
G1 X65.695 Y25.55 E1.16733
G1 X66.694 Y25.055 E.03496
G1 X67.293 Y24.895 E.01944
G1 X68.12 Y24.807 E.02608
G1 X209.513 Y24.824 E4.43328
G1 X210.558 Y25.023 E.03335
G1 X211.523 Y25.468 E.03332
G1 X212.352 Y26.133 E.03332
G1 X212.849 Y26.729 E.02433
G1 X234.898 Y59.279 E1.23269
G1 X235.391 Y60.263 E.03451
G1 X235.6 Y61.104 E.02717
G1 X235.651 Y61.733 E.01979
G1 X235.637 Y124.585 E1.97068
G1 X227.659 Y181.432 E1.79987
M73 P0 R117
G1 X227.495 Y182.127 E.02239
G1 X227.1 Y183.024 E.03073
G1 X226.803 Y183.468 E.01675
G1 X226.126 Y184.177 E.03074
G1 X225.308 Y184.717 E.03073
G1 X224.39 Y185.061 E.03074
G1 X223.419 Y185.192 E.03072
G1 X222.781 Y185.166 E.02002
G1 X46.867 Y165.838 E5.54885
G1 X46.215 Y165.716 E.0208
G1 X45.299 Y165.368 E.03072
G1 X44.84 Y165.095 E.01674
G1 X44.097 Y164.455 E.03075
G1 X43.515 Y163.667 E.03072
G1 X43.203 Y163.021 E.02249
G1 X14.512 Y86.458 E2.5636
G1 X14.349 Y85.281 E.03726
G1 X14.368 Y65.856 E.60906
G1 X14.575 Y64.85 E.0322
G1 X14.96 Y64.018 E.02874
G1 X15.285 Y63.541 E.0181
G1 X15.966 Y62.841 E.03062
G1 X35.861 Y47.922 E.7797
M204 S1000
; printing object SOL_HOLE.stl id:0 copy 0
;WIPE_START
G1 F8640
G1 X35.909 Y47.886 E-.01385
G1 X38.633 Y45.843 E-.78615
;WIPE_END
G1 Z.6 F720
G1 X209.168 Y161.05 F10800
G1 Z.2 F720
G1 E.8 F2100
M204 S800
;TYPE:Perimeter
;WIDTH:0.437585
G1 F1200
G1 X209.112 Y161.095 E.00236
;WIDTH:0.477063
G1 X209.038 Y161.147 E.00326
;WIDTH:0.516541
G1 X208.965 Y161.199 E.00353
;WIDTH:0.556019
G1 X208.891 Y161.251 E.00386
;WIDTH:0.595496
G1 X208.818 Y161.303 E.00412
G1 X209.025 Y161.332 E.0096
;WIDTH:0.551622
G1 X209.233 Y161.36 E.00888
;WIDTH:0.507748
G1 X209.441 Y161.389 E.00812
;WIDTH:0.463874
G1 X209.649 Y161.417 E.00735
;WIDTH:0.419999
G1 X223.449 Y163.357 E.43694
G1 X223.727 Y163.478 E.00951
G1 X223.843 Y163.607 E.00544
G1 X223.921 Y163.787 E.00615
G1 X223.93 Y163.995 E.00653
G1 X221.92 Y178.298 E.45287
G1 X221.843 Y178.514 E.00719
G1 X221.701 Y178.67 E.00661
G1 X221.379 Y178.784 E.01071
G1 X221.281 Y178.779 E.00308
G1 X206.979 Y176.769 E.45284
G1 X206.773 Y176.698 E.00683
G1 X206.619 Y176.566 E.00636
G1 X206.499 Y176.296 E.00926
G1 X206.611 Y175.322 E.03074
G1 X208.508 Y161.828 E.42725
;WIDTH:0.461032
G1 X208.563 Y161.692 E.0051
;WIDTH:0.502065
G1 X208.618 Y161.556 E.0056
;WIDTH:0.543097
G1 X208.673 Y161.419 E.00614
;WIDTH:0.571847
G1 X208.715 Y161.374 E.00271
;WIDTH:0.600596
G1 X208.757 Y161.329 E.00285
G1 X208.602 Y161.325 E.00719
;WIDTH:0.555447
G1 X208.446 Y161.32 E.00665
;WIDTH:0.510298
G1 X208.291 Y161.316 E.00603
;WIDTH:0.465149
G1 X208.136 Y161.312 E.00544
;WIDTH:0.419999
G1 X207.65 Y161.229 E.01546
G1 X207.203 Y161.023 E.01543
G1 X206.825 Y160.708 E.01543
G1 X206.541 Y160.306 E.01543
G1 X206.37 Y159.844 E.01545
G1 X206.325 Y159.354 E.01543
G1 X206.409 Y158.869 E.01543
G1 X206.614 Y158.422 E.01542
G1 X206.929 Y158.043 E.01545
G1 X207.331 Y157.759 E.01543
G1 X207.818 Y157.585 E.01621
G1 X208.222 Y157.547 E.01272
G1 X208.608 Y157.586 E.01216
;WIDTH:0.456758
G1 X208.855 Y157.656 E.00883
;WIDTH:0.493516
G1 X209.102 Y157.725 E.00961
;WIDTH:0.521473
G1 X209.178 Y157.753 E.00322
;WIDTH:0.54943
G1 X209.255 Y157.782 E.00347
G1 X209.218 Y157.709 E.00345
;WIDTH:0.521473
G1 X209.182 Y157.636 E.00324
;WIDTH:0.493516
G1 X209.165 Y157.451 E.00696
;WIDTH:0.456758
G1 X209.149 Y157.266 E.00639
;WIDTH:0.419999
G1 X211.159 Y142.964 E.45284
G1 X211.252 Y142.724 E.00807
G1 X211.41 Y142.569 E.00694
G1 X211.638 Y142.483 E.00764
G1 X211.798 Y142.482 E.00502
G1 X226.1 Y144.492 E.45284
G1 X226.378 Y144.614 E.00952
G1 X226.494 Y144.742 E.00542
G1 X226.587 Y145.033 E.00958
G1 X226.581 Y145.131 E.00308
G1 X224.571 Y159.433 E.45284
G1 X224.504 Y159.631 E.00655
G1 X224.381 Y159.783 E.00613
G1 X224.098 Y159.913 E.00976
G1 X223.932 Y159.915 E.00521
G1 X210.07 Y157.966 E.43891
;WIDTH:0.462286
G1 X209.811 Y157.949 E.00905
;WIDTH:0.504573
G1 X209.553 Y157.932 E.00993
;WIDTH:0.551822
G1 X209.417 Y157.904 E.00588
G1 X209.546 Y158.077 E.00913
;WIDTH:0.507881
G1 X209.675 Y158.249 E.00831
;WIDTH:0.46394
G1 X209.804 Y158.422 E.00755
;WIDTH:0.419999
G1 X210.01 Y158.869 E.01543
G1 X210.093 Y159.354 E.01543
G1 X210.048 Y159.844 E.01543
G1 X209.878 Y160.306 E.01544
G1 X209.594 Y160.708 E.01543
;WIDTH:0.437585
G1 X209.215 Y161.012 E.01594
M204 S1000
G1 X208.933 Y160.752 F10800
M204 S800
;TYPE:External perimeter
;WIDTH:0.419999
G1 F1200
G1 X208.576 Y160.893 E.01203
G1 X208.162 Y160.935 E.01305
G1 X207.795 Y160.88 E.01164
G1 X207.433 Y160.723 E.01237
G1 X207.124 Y160.478 E.01236
G1 X206.889 Y160.161 E.01237
G1 X206.744 Y159.795 E.01234
G1 X206.699 Y159.403 E.01237
G1 X206.757 Y159.013 E.01236
G1 X206.914 Y158.651 E.01237
G1 X207.159 Y158.342 E.01236
G1 X207.475 Y158.107 E.01235
G1 X207.867 Y157.959 E.01314
G1 X208.184 Y157.923 E.01
G1 X208.57 Y157.962 E.01216
G1 X208.986 Y158.132 E.01409
G1 X209.295 Y158.377 E.01236
G1 X209.53 Y158.694 E.01237
G1 X209.675 Y159.061 E.01237
G1 X209.72 Y159.452 E.01234
G1 X209.662 Y159.842 E.01236
G1 X209.505 Y160.204 E.01237
G1 X209.26 Y160.513 E.01236
G1 X208.982 Y160.719 E.01085
M204 S1000
;WIPE_START
G1 F8640
G1 X208.933 Y160.752 E-.01364
G1 X208.576 Y160.893 E-.08863
G1 X208.162 Y160.935 E-.09608
G1 X207.795 Y160.88 E-.08569
G1 X207.433 Y160.723 E-.09111
G1 X207.124 Y160.478 E-.09105
G1 X206.889 Y160.161 E-.09112
G1 X206.744 Y159.795 E-.0909
G1 X206.699 Y159.403 E-.09111
G1 X206.738 Y159.143 E-.06067
;WIPE_END
G1 Z.6 F720
G1 X224.198 Y159.381 F10800
G1 Z.2 F720
G1 E.8 F2100
M204 S800
G1 F1200
G1 X224.134 Y159.497 E.00415
G1 X223.985 Y159.541 E.00487
G1 X210.122 Y157.593 E.43893
G1 X209.622 Y157.512 E.01588
G1 X209.544 Y157.436 E.00341
G1 X209.539 Y157.202 E.00734
G1 X211.532 Y143.016 E.44916
G1 X211.616 Y142.884 E.00491
G1 X211.745 Y142.856 E.00414
G1 X226.048 Y144.866 E.45287
G1 X226.179 Y144.949 E.00486
G1 X226.208 Y145.079 E.00418
G1 X224.206 Y159.321 E.45094
M204 S1000
;WIPE_START
G1 F8640
G1 X224.198 Y159.381 E-.01398
G1 X224.134 Y159.497 E-.03059
G1 X223.985 Y159.541 E-.03587
G1 X220.899 Y159.107 E-.71956
;WIPE_END
G1 Z.6 F720
G1 X209.417 Y157.904 F10800
G1 Z.2 F720
G1 E.8 F2100
M204 S800
;TYPE:Perimeter
;WIDTH:0.551822
G1 F1200
G1 X209.255 Y157.782 E.00858
M204 S1000
;WIPE_START
G1 F8640
G1 X209.417 Y157.904 E-.04683
;WIPE_END
G1 E-.75317 F2100
G1 Z.6 F720
G1 X208.979 Y161.741 F10800
G1 Z.2 F720
G1 E.8 F2100
M204 S800
;TYPE:External perimeter
;WIDTH:0.419999
G1 F1200
G1 X209.254 Y161.743 E.00862
G1 X211.491 Y162.057 E.07083
G1 X223.396 Y163.73 E.37694
G1 X223.528 Y163.813 E.00489
G1 X223.557 Y163.943 E.00418
G1 X221.547 Y178.245 E.45284
G1 X221.474 Y178.369 E.00451
G1 X221.334 Y178.406 E.00454
G1 X207.031 Y176.396 E.45287
G1 X206.911 Y176.328 E.00432
G1 X206.871 Y176.183 E.00472
G1 X208.881 Y161.88 E.45287
G1 X208.944 Y161.79 E.00344
M204 S1000
;WIPE_START
G1 F8640
G1 X208.979 Y161.741 E-.0139
G1 X209.254 Y161.743 E-.0635
G1 X211.491 Y162.057 E-.52159
G1 X212.353 Y162.178 E-.20101
;WIPE_END
G1 Z.6 F720
G1 X204.144 Y174.753 F10800
G1 Z.2 F720
G1 E.8 F2100
M204 S800
;TYPE:Perimeter
G1 F1200
G1 X204.042 Y174.968 E.00746
G1 X203.804 Y175.121 E.00887
G1 X203.548 Y175.144 E.00806
G1 X189.246 Y173.134 E.45284
G1 X189.076 Y173.082 E.00557
G1 X188.84 Y172.867 E.01001
G1 X188.761 Y172.626 E.00795
G1 X188.759 Y172.545 E.00254
G1 X189.8 Y165.125 E.23493
G1 X190.174 Y164.789 E.01576
G1 X189.44 Y164.686 E.02324
G1 X189.18 Y164.578 E.00883
G1 X189.026 Y164.403 E.00731
G1 X188.957 Y164.187 E.00711
G1 X188.959 Y164.047 E.00439
G1 X190.969 Y149.744 E.45287
G1 X191.066 Y149.499 E.00826
G1 X191.193 Y149.369 E.0057
G1 X191.328 Y149.295 E.00483
G1 X191.615 Y149.264 E.00905
G1 X192.428 Y149.378 E.02574
G1 X192.078 Y148.915 E.0182
G1 X193.114 Y141.544 E.23338
G1 X193.208 Y141.302 E.00814
G1 X193.362 Y141.151 E.00676
G1 X193.576 Y141.066 E.00722
G1 X193.753 Y141.063 E.00555
G1 X208.055 Y143.073 E.45284
G1 X208.323 Y143.186 E.00912
G1 X208.485 Y143.386 E.00807
G1 X208.536 Y143.712 E.01035
G1 X207.501 Y151.082 E.23335
G1 X207.391 Y151.345 E.00894
G1 X207.197 Y151.508 E.00794
G1 X206.855 Y151.563 E.01086
G1 X206.042 Y151.448 E.02574
G1 X206.391 Y151.912 E.0182
G1 X204.381 Y166.214 E.45284
G1 X204.008 Y166.55 E.01574
M73 Q0 S117
G1 X204.741 Y166.654 E.02321
G1 X205.048 Y166.8 E.01066
G1 X205.19 Y167.009 E.00792
G1 X205.223 Y167.292 E.00893
G1 X204.187 Y174.663 E.23338
G1 X204.17 Y174.699 E.00125
M204 S1000
G1 X203.813 Y174.61 F10800
M204 S800
;TYPE:External perimeter
G1 F1200
G1 X203.722 Y174.747 E.00516
G1 X203.6 Y174.771 E.0039
G1 X189.298 Y172.761 E.45284
G1 X189.163 Y172.672 E.00507
G1 X189.136 Y172.564 E.00349
G1 X190.173 Y165.177 E.23388
;WIDTH:0.453928
G1 X190.233 Y165.106 E.00318
;WIDTH:0.487857
G1 X190.293 Y165.035 E.00344
;WIDTH:0.521786
G1 X190.352 Y164.964 E.00368
G1 X190.393 Y164.968 E.00164
;WIDTH:0.518183
G1 X203.722 Y166.842 E.53192
G1 X204.189 Y166.932 E.01879
;WIDTH:0.469088
G1 X204.656 Y167.022 E.01685
;WIDTH:0.419999
G1 X204.791 Y167.076 E.00456
G1 X204.849 Y167.24 E.00545
G1 X203.822 Y174.551 E.23148
M204 S1000
;WIPE_START
G1 F8640
G1 X203.813 Y174.61 E-.01378
G1 X203.722 Y174.747 E-.03798
G1 X203.6 Y174.771 E-.02871
G1 X200.514 Y174.337 E-.71953
;WIPE_END
G1 Z.6 F720
G1 X205.865 Y151.592 F10800
G1 Z.2 F720
G1 E.8 F2100
M204 S800
;WIDTH:0.530965
G1 F1200
G1 X205.916 Y151.683 E.00423
;WIDTH:0.49398
G1 X205.966 Y151.775 E.00393
;WIDTH:0.45699
G1 X206.017 Y151.866 E.00359
;WIDTH:0.419999
G1 X205.077 Y158.555 E.21179
G1 X204.008 Y166.162 E.24086
;WIDTH:0.453926
G1 X203.948 Y166.233 E.00318
;WIDTH:0.487852
G1 X203.889 Y166.304 E.00342
;WIDTH:0.521778
G1 X203.829 Y166.375 E.0037
G1 X203.788 Y166.371 E.00164
;WIDTH:0.518183
G1 X190.459 Y164.498 E.53191
G1 X189.992 Y164.407 E.0188
;WIDTH:0.469091
G1 X189.525 Y164.317 E.01685
;WIDTH:0.419999
G1 X189.369 Y164.24 E.00545
G1 X189.332 Y164.099 E.00457
G1 X191.342 Y149.797 E.45284
G1 X191.417 Y149.672 E.00457
G1 X191.562 Y149.637 E.00468
;WIDTH:0.456988
G1 X191.887 Y149.664 E.01123
;WIDTH:0.493977
G1 X192.212 Y149.691 E.01223
;WIDTH:0.530965
G1 X192.536 Y149.718 E.01319
G1 X205.806 Y151.583 E.5438
M204 S1000
;WIPE_START
G1 F8640
G1 X205.865 Y151.592 E-.01378
G1 X205.916 Y151.683 E-.02409
;WIPE_END
G1 E-.76213 F2100
G1 Z.6 F720
G1 X192.604 Y149.235 F10800
G1 Z.2 F720
G1 E.8 F2100
M204 S800
;WIDTH:0.53097
G1 F1200
G1 X192.554 Y149.144 E.00421
;WIDTH:0.493977
G1 X192.503 Y149.052 E.00395
;WIDTH:0.456988
G1 X192.453 Y148.96 E.00361
;WIDTH:0.419999
G1 X193.487 Y141.597 E.23313
G1 X193.57 Y141.466 E.00486
G1 X193.7 Y141.436 E.00418
G1 X206.044 Y143.171 E.39084
G1 X208.003 Y143.446 E.06203
G1 X208.119 Y143.51 E.00415
G1 X208.163 Y143.659 E.00487
G1 X207.127 Y151.03 E.23338
G1 X207.026 Y151.171 E.00544
;WIDTH:0.45699
G1 X206.662 Y151.15 E.01255
;WIDTH:0.49398
G1 X206.297 Y151.129 E.01371
;WIDTH:0.53097
G1 X205.933 Y151.108 E.0148
G1 X192.664 Y149.243 E.54377
M204 S1000
;WIPE_START
G1 F8640
G1 X192.604 Y149.235 E-.01398
G1 X192.554 Y149.144 E-.02398
;WIPE_END
G1 E-.76204 F2100
G1 Z.6 F720
M73 Q1 S117
G1 X206.915 Y119.442 F10800
G1 Z.2 F720
M73 P1 R117
G1 E.8 F2100
M204 S800
;TYPE:Perimeter
;WIDTH:0.419999
G1 F1200
G1 X206.965 Y119.531 E.0032
G1 X206.987 Y120.314 E.02456
G1 X206.987 Y135.729 E.48333
G1 X206.919 Y135.997 E.00867
G1 X206.757 Y136.184 E.00776
G1 X206.554 Y136.279 E.00703
G1 X206.421 Y136.295 E.0042
G1 X192.978 Y136.295 E.4215
G1 X192.712 Y136.228 E.0086
G1 X192.509 Y136.045 E.00857
G1 X192.418 Y135.807 E.00799
G1 X192.412 Y119.686 E.50546
G1 X192.504 Y119.378 E.01008
G1 X192.609 Y119.258 E.005
G1 X192.88 Y119.129 E.00941
G1 X192.978 Y119.121 E.00308
G1 X206.421 Y119.121 E.4215
G1 X206.575 Y119.142 E.00487
G1 X206.835 Y119.302 E.00957
G1 X206.885 Y119.39 E.00317
M204 S1000
G1 X206.59 Y119.604 F10800
M204 S800
;TYPE:External perimeter
G1 F1200
G1 X206.609 Y120.314 E.02227
G1 X206.609 Y135.729 E.48333
G1 X206.562 Y135.855 E.00422
G1 X206.421 Y135.918 E.00484
G1 X192.978 Y135.918 E.4215
G1 X192.844 Y135.862 E.00455
G1 X192.789 Y135.729 E.00451
G1 X192.789 Y119.686 E.50302
G1 X192.855 Y119.544 E.00491
G1 X192.978 Y119.498 E.00412
G1 X206.472 Y119.505 E.42309
G1 X206.544 Y119.566 E.00296
M204 S1000
;WIPE_START
G1 F8640
G1 X206.59 Y119.604 E-.01378
G1 X206.609 Y120.314 E-.164
G1 X206.609 Y123.009 E-.62222
;WIPE_END
G1 Z.6 F720
G1 X206.953 Y116.624 F10800
G1 Z.2 F720
G1 E.8 F2100
M204 S800
;TYPE:Perimeter
G1 F1200
G1 X206.421 Y116.645 E.01669
G1 X192.978 Y116.645 E.4215
G1 X192.478 Y116.645 E.01568
G1 X192.239 Y116.592 E.00768
G1 X192.027 Y116.421 E.00854
G1 X191.924 Y116.193 E.00784
G1 X191.912 Y101.637 E.45639
G1 X191.943 Y101.453 E.00585
G1 X192.139 Y101.184 E.01044
G1 X192.429 Y101.073 E.00974
G1 X192.478 Y101.071 E.00154
M73 P1 R116
G1 X206.921 Y101.071 E.45285
G1 X207.186 Y101.137 E.00856
G1 X207.4 Y101.336 E.00916
G1 X207.472 Y101.509 E.00588
G1 X207.486 Y102.137 E.0197
G1 X207.486 Y116.08 E.43717
G1 X207.449 Y116.281 E.00641
G1 X207.294 Y116.505 E.00854
G1 X207.092 Y116.619 E.00727
G1 X207.013 Y116.622 E.00248
M204 S1000
G1 X206.921 Y116.268 F10800
M204 S800
;TYPE:External perimeter
G1 F1200
G1 X192.978 Y116.268 E.43717
G1 X192.478 Y116.268 E.01568
G1 X192.328 Y116.193 E.00526
G1 X192.289 Y116.08 E.00375
G1 X192.289 Y101.637 E.45285
G1 X192.365 Y101.486 E.0053
G1 X192.478 Y101.448 E.00374
G1 X206.921 Y101.448 E.45285
G1 X207.058 Y101.507 E.00468
G1 X207.109 Y101.637 E.00438
G1 X207.109 Y116.08 E.45285
G1 X207.045 Y116.221 E.00486
G1 X206.977 Y116.247 E.00228
M204 S1000
;WIPE_START
G1 F8640
G1 X206.921 Y116.268 E-.01381
G1 X203.516 Y116.268 E-.78619
;WIPE_END
G1 Z.6 F720
G1 X187.945 Y98.585 F10800
G1 Z.2 F720
G1 E.8 F2100
M204 S800
;TYPE:Perimeter
G1 F1200
G1 X188.07 Y98.607 E.00398
G1 X188.32 Y98.793 E.00977
G1 X188.425 Y99.022 E.0079
G1 X188.437 Y100.101 E.03383
G1 X188.437 Y113.579 E.42259
G1 X188.406 Y113.763 E.00585
G1 X188.21 Y114.032 E.01044
G1 X188.07 Y114.109 E.00501
G1 X187.871 Y114.145 E.00634
G1 X173.428 Y114.145 E.45285
G1 X173.23 Y114.109 E.00631
G1 X172.979 Y113.923 E.0098
G1 X172.874 Y113.694 E.0079
G1 X172.863 Y112.615 E.03383
G1 X172.863 Y99.137 E.42259
G1 X172.893 Y98.953 E.00585
G1 X173.089 Y98.684 E.01044
G1 X173.379 Y98.573 E.00974
G1 X173.428 Y98.571 E.00154
G1 X187.871 Y98.571 E.45285
G1 X187.886 Y98.574 E.00048
M204 S1000
G1 X187.871 Y98.948 F10800
M204 S800
;TYPE:External perimeter
G1 F1200
