; generated by PrusaSlicer 2.7.1+MacOS-arm64 on 2024-01-22 at 01:59:48 UTC


;
;
; 

; external perimeters extrusion width = 0.60mm
; perimeters extrusion width = 0.50mm
; infill extrusion width = 0.50mm
; solid infill extrusion width = 0.50mm
; top infill extrusion width = 0.45mm
; first layer extrusion width = 0.42mm

; external perimeters extrusion width = 0.60mm
; perimeters extrusion width = 0.50mm
; infill extrusion width = 0.50mm
; solid infill extrusion width = 0.50mm
; top infill extrusion width = 0.45mm
; first layer extrusion width = 0.42mm

; external perimeters extrusion width = 0.60mm
; perimeters extrusion width = 0.50mm
; infill extrusion width = 0.50mm
; solid infill extrusion width = 0.50mm
; top infill extrusion width = 0.45mm
; first layer extrusion width = 0.42mm

; external perimeters extrusion width = 0.60mm
; perimeters extrusion width = 0.50mm
; infill extrusion width = 0.50mm
; solid infill extrusion width = 0.50mm
; top infill extrusion width = 0.45mm
; first layer extrusion width = 0.42mm

M73 P0 R32
M73 Q0 S32
M201 X1000 Y1000 Z200 E5000 ; sets maximum accelerations, mm/sec^2
M203 X200 Y200 Z12 E120 ; sets maximum feedrates, mm / sec
M204 S1250 T1250 ; sets acceleration (S) and retract acceleration (R), mm/sec^2
M205 X8.00 Y8.00 Z0.40 E4.50 ; sets the jerk limits, mm/sec
M205 S0 T0 ; sets the minimum extruding and travel feed rate, mm/sec

; printing object ergodonk_zero_workholding_feet.stl id:1 copy 0
; stop printing object ergodonk_zero_workholding_feet.stl id:1 copy 0
; printing object ergodonk_zero_workholding_feet.stl id:0 copy 0
; stop printing object ergodonk_zero_workholding_feet.stl id:0 copy 0
; printing object ergodonk_zero_workholding_feet.stl id:2 copy 0
; stop printing object ergodonk_zero_workholding_feet.stl id:2 copy 0
; printing object ergodonk_zero_workholding_feet.stl id:3 copy 0
; stop printing object ergodonk_zero_workholding_feet.stl id:3 copy 0

;TYPE:Custom
M862.3 P "MK3S" ; printer model check
M862.1 P0.4 ; nozzle diameter check
M115 U3.13.2 ; tell printer latest fw version
G90 ; use absolute coordinates
M83 ; extruder relative mode
M104 S215 ; set extruder temp
M140 S60 ; set bed temp
M190 S60 ; wait for bed temp
M109 S215 ; wait for extruder temp
G28 W ; home all without mesh bed level
G80 X108.9 Y67.4 W32.2 H74.8 ; mesh bed levelling

G1 Z0.2 F720
G1 Y-3 F1000 ; go outside print area
G92 E0
G1 X60 E9 F1000 ; intro line
G1 X100 E12.5 F1000 ; intro line

G92 E0
M221 S95

; Don't change E values below. Excessive value can damage the printer.

M907 E538 ; set extruder motor current
G21 ; set units to millimeters
G90 ; use absolute coordinates
M83 ; use relative distances for extrusion
M900 K0.05 ; Filament gcode LA 1.5
M900 K30 ; Filament gcode LA 1.0

M107
;LAYER_CHANGE
;Z:0.2
;HEIGHT:0.2
;BEFORE_LAYER_CHANGE
G92 E0.0
;0.2


G1 E-.8 F2100
G1 Z.2 F720
;AFTER_LAYER_CHANGE
;0.2
; printing object ergodonk_zero_workholding_feet.stl id:0 copy 0
G1 X110.348 Y96.626 F10800
G1 Z.2 F720
G1 E.8 F2100
M204 S800
;TYPE:Perimeter
;WIDTH:0.502921
G1 F1200
G1 X110.347 Y96.628 E.00009
;WIDTH:0.544381
G1 X110.251 Y96.779 E.00746
G1 X110.251 Y98.937 E.08998
G1 X110.269 Y99.279 E.01428
;WIDTH:0.507046
G1 X110.288 Y99.621 E.01322
;WIDTH:0.46971
G1 X110.362 Y99.792 E.00661
;WIDTH:0.438378
G1 X110.436 Y99.963 E.00613
;WIDTH:0.41539
G1 X110.623 Y100.123 E.00762
;WIDTH:0.442543
G1 X110.751 Y100.168 E.00451
;WIDTH:0.469695
G1 X110.879 Y100.212 E.0048
;WIDTH:0.507039
G1 X111.221 Y100.231 E.01322
;WIDTH:0.544382
G1 X111.563 Y100.249 E.01428
G1 X120.421 Y100.249 E.36935
G1 X120.677 Y100.342 E.01136
G1 X120.733 Y100.533 E.0083
G1 X120.645 Y100.685 E.00732
G1 X120.458 Y100.751 E.00827
G1 X111.563 Y100.751 E.37089
G1 X111.082 Y100.705 E.02015
;WIDTH:0.515416
G1 X110.861 Y100.638 E.00907
;WIDTH:0.48075
G1 X110.64 Y100.571 E.00841
;WIDTH:0.446083
G1 X110.258 Y100.314 E.01543
;WIDTH:0.446554
G1 X109.954 Y99.902 E.01718
;WIDTH:0.48099
G1 X109.882 Y99.69 E.00816
;WIDTH:0.515425
G1 X109.81 Y99.477 E.00883
;WIDTH:0.544382
G1 X109.749 Y98.953 E.022
G1 X109.749 Y96.779 E.09065
G1 X109.729 Y96.486 E.01225
;WIDTH:0.502921
G1 X109.708 Y96.193 E.01124
;WIDTH:0.46146
G1 X109.687 Y95.9 E.01022
;WIDTH:0.419999
G1 X109.687 Y68.187 E.86892
G1 X120.813 Y68.187 E.34885
G1 X120.813 Y73.75 E.17442
G1 X120.813 Y95.797 E.69127
G1 X120.779 Y96.014 E.00689
G1 X120.674 Y96.135 E.00502
G1 X120.437 Y96.213 E.00782
G1 X110.879 Y96.213 E.29968
G1 X110.539 Y96.326 E.01123
;WIDTH:0.46146
G1 X110.443 Y96.477 E.00623
;WIDTH:0.502921
G1 X110.38 Y96.576 E.00449
M204 S1000
G1 X110.69 Y96.779 F10800
M204 S800
;TYPE:External perimeter
;WIDTH:0.419999
G1 F1200
G1 X110.69 Y99.621 E.08911
G1 X110.729 Y99.737 E.00384
G1 X110.879 Y99.81 E.00523
G1 X120.394 Y99.81 E.29834
G1 X120.794 Y99.882 E.01274
G1 X121.012 Y100.044 E.00852
G1 X121.15 Y100.283 E.00865
G1 X121.18 Y100.583 E.00945
G1 X121.093 Y100.843 E.0086
G1 X120.911 Y101.047 E.00857
G1 X120.775 Y101.109 E.00469
G1 X120.481 Y101.19 E.00956
G1 X111.519 Y101.19 E.281
G1 X110.942 Y101.116 E.01824
G1 X110.422 Y100.904 E.01761
G1 X109.974 Y100.567 E.01758
G1 X109.596 Y100.077 E.0194
G1 X109.384 Y99.558 E.01758
G1 X109.31 Y98.981 E.01824
G1 X109.31 Y67.81 E.97734
G1 X121.19 Y67.81 E.37249
G1 X121.19 Y73.75 E.18624
G1 X121.19 Y95.797 E.69127
G1 X121.136 Y96.157 E.01141
G1 X120.994 Y96.374 E.00813
G1 X120.755 Y96.536 E.00905
G1 X120.472 Y96.59 E.00903
G1 X110.879 Y96.59 E.30078
G1 X110.765 Y96.628 E.00377
G1 X110.717 Y96.725 E.00339
M204 S1000
;WIPE_START
G1 F8640
G1 X110.69 Y96.779 E-.01394
G1 X110.69 Y99.621 E-.65623
G1 X110.729 Y99.737 E-.02826
G1 X110.879 Y99.81 E-.03852
G1 X111.152 Y99.81 E-.06305
;WIPE_END
G1 Z.6 F720
G1 X120.643 Y69.125 F10800
G1 Z.2 F720
G1 E.8 F2100
M204 S800
;TYPE:Solid infill
;WIDTH:0.422879
G1 F1200
G1 X120.045 Y68.526 E.02674
G1 X119.507 Y68.526 E.017
G1 X120.474 Y69.493 E.04321
G1 X120.474 Y70.03 E.01697
G1 X118.97 Y68.526 E.0672
G1 X118.433 Y68.526 E.01697
G1 X120.474 Y70.567 E.09119
G1 X120.474 Y71.105 E.017
G1 X117.895 Y68.526 E.11523
G1 X117.358 Y68.526 E.01697
G1 X120.474 Y71.642 E.13922
G1 X120.474 Y72.18 E.017
M73 Q1 S32
G1 X116.82 Y68.526 E.16326
G1 X116.283 Y68.526 E.01697
M73 P1 R32
G1 X120.474 Y72.717 E.18725
G1 X120.474 Y73.254 E.01697
G1 X115.746 Y68.526 E.21125
G1 X115.208 Y68.526 E.017
G1 X120.474 Y73.792 E.23529
G1 X120.474 Y74.329 E.01697
G1 X114.671 Y68.526 E.25928
G1 X114.134 Y68.526 E.01697
G1 X120.474 Y74.866 E.28327
G1 X120.474 Y75.404 E.017
G1 X113.596 Y68.526 E.30731
G1 X113.059 Y68.526 E.01697
G1 X120.474 Y75.941 E.3313
G1 X120.474 Y76.478 E.01697
G1 X112.522 Y68.526 E.3553
G1 X111.984 Y68.526 E.017
G1 X120.474 Y77.016 E.37934
G1 X120.474 Y77.553 E.01697
G1 X111.447 Y68.526 E.40333
G1 X110.91 Y68.526 E.01697
G1 X120.474 Y78.09 E.42732
G1 X120.474 Y78.628 E.017
G1 X110.372 Y68.526 E.45136
G1 X110.026 Y68.526 E.01093
G1 X110.026 Y68.718 E.00607
G1 X120.474 Y79.165 E.4668
G1 X120.474 Y79.702 E.01697
G1 X110.026 Y69.255 E.4668
G1 X110.026 Y69.793 E.017
G1 X120.474 Y80.24 E.4668
G1 X120.474 Y80.777 E.01697
G1 X110.026 Y70.33 E.4668
G1 X110.026 Y70.867 E.01697
G1 X120.474 Y81.314 E.4668
G1 X120.474 Y81.852 E.017
G1 X110.026 Y71.405 E.4668
G1 X110.026 Y71.942 E.01697
G1 X120.474 Y82.389 E.4668
G1 X120.474 Y82.926 E.01697
G1 X110.026 Y72.479 E.4668
G1 X110.026 Y73.017 E.017
G1 X120.474 Y83.464 E.4668
G1 X120.474 Y84.001 E.01697
G1 X110.026 Y73.554 E.4668
G1 X110.026 Y74.091 E.01697
G1 X120.474 Y84.538 E.4668
G1 X120.474 Y85.076 E.017
G1 X110.026 Y74.629 E.4668
G1 X110.026 Y75.166 E.01697
G1 X120.474 Y85.613 E.4668
G1 X120.474 Y86.15 E.01697
G1 X110.026 Y75.703 E.4668
G1 X110.026 Y76.241 E.017
G1 X120.474 Y86.688 E.4668
G1 X120.474 Y87.225 E.01697
G1 X110.026 Y76.778 E.4668
G1 X110.026 Y77.315 E.01697
G1 X120.474 Y87.762 E.4668
G1 X120.474 Y88.3 E.017
M73 P2 R32
M73 Q2 S32
G1 X110.026 Y77.853 E.4668
G1 X110.026 Y78.39 E.01697
G1 X120.474 Y88.837 E.4668
G1 X120.474 Y89.374 E.01697
G1 X110.026 Y78.927 E.4668
G1 X110.026 Y79.465 E.017
G1 X120.474 Y89.912 E.4668
G1 X120.474 Y90.449 E.01697
G1 X110.026 Y80.002 E.4668
G1 X110.026 Y80.539 E.01697
G1 X120.474 Y90.987 E.46682
G1 X120.474 Y91.524 E.01697
M73 P2 R31
G1 X110.026 Y81.077 E.4668
G1 X110.026 Y81.614 E.01697
G1 X120.474 Y92.061 E.4668
G1 X120.474 Y92.599 E.017
G1 X110.026 Y82.151 E.46682
G1 X110.026 Y82.689 E.017
G1 X120.474 Y93.136 E.4668
G1 X120.474 Y93.673 E.01697
G1 X110.026 Y83.226 E.4668
G1 X110.026 Y83.763 E.01697
G1 X120.474 Y94.211 E.46682
G1 X120.474 Y94.748 E.01697
G1 X110.026 Y84.301 E.4668
G1 X110.026 Y84.838 E.01697
G1 X120.474 Y95.285 E.4668
G1 X120.474 Y95.798 E.01621
G1 X120.468 Y95.817 E.00063
G1 X110.026 Y85.376 E.46653
G1 X110.026 Y85.913 E.01697
G1 X119.987 Y95.874 E.44506
G1 X119.45 Y95.874 E.01697
G1 X110.026 Y86.45 E.42107
G1 X110.026 Y86.988 E.017
G1 X118.912 Y95.874 E.39703
G1 X118.375 Y95.874 E.01697
G1 X110.026 Y87.525 E.37304
G1 X110.026 Y88.062 E.01697
G1 X117.838 Y95.874 E.34904
G1 X117.3 Y95.874 E.017
G1 X110.026 Y88.6 E.325
G1 X110.026 Y89.137 E.01697
G1 X116.763 Y95.874 E.30101
G1 X116.226 Y95.874 E.01697
M73 Q2 S31
G1 X110.026 Y89.674 E.27702
G1 X110.026 Y90.212 E.017
G1 X115.688 Y95.874 E.25298
G1 X115.151 Y95.874 E.01697
G1 X110.026 Y90.749 E.22899
G1 X110.026 Y91.286 E.01697
G1 X114.614 Y95.874 E.20499
G1 X114.076 Y95.874 E.017
G1 X110.026 Y91.824 E.18096
G1 X110.026 Y92.361 E.01697
G1 X113.539 Y95.874 E.15696
G1 X113.002 Y95.874 E.01697
G1 X110.026 Y92.898 E.13297
G1 X110.026 Y93.436 E.017
G1 X112.464 Y95.874 E.10893
G1 X111.927 Y95.874 E.01697
G1 X110.026 Y93.973 E.08494
G1 X110.026 Y94.51 E.01697
G1 X111.39 Y95.874 E.06094
G1 X110.853 Y95.874 E.01697
G1 X110.026 Y95.048 E.03693
M73 Q3 S31
G1 X110.026 Y95.585 E.01697
M73 P3 R31
G1 X110.45 Y96.008 E.01892
G1 X110.331 Y96.048 E.00397
G1 X110.174 Y96.27 E.00859
G1 X109.865 Y95.961 E.01381
M204 S1000
; stop printing object ergodonk_zero_workholding_feet.stl id:0 copy 0
; printing object ergodonk_zero_workholding_feet.stl id:1 copy 0
;WIPE_START
G1 F8640
G1 X110.174 Y96.27 E-.1009
G1 X110.331 Y96.048 E-.06278
G1 X110.45 Y96.008 E-.02899
G1 X110.026 Y95.585 E-.13829
G1 X110.026 Y95.048 E-.12399
G1 X110.853 Y95.874 E-.26989
G1 X111.178 Y95.874 E-.07516
;WIPE_END
G1 Z.6 F720
G1 X129.848 Y96.626 F10800
G1 Z.2 F720
G1 E.8 F2100
M204 S800
;TYPE:Perimeter
;WIDTH:0.502921
G1 F1200
G1 X129.847 Y96.628 E.00009
;WIDTH:0.544381
G1 X129.751 Y96.779 E.00746
G1 X129.751 Y98.937 E.08998
G1 X129.769 Y99.279 E.01428
;WIDTH:0.507046
G1 X129.788 Y99.621 E.01322
;WIDTH:0.46971
G1 X129.862 Y99.792 E.00661
;WIDTH:0.438378
G1 X129.936 Y99.963 E.00613
;WIDTH:0.41539
G1 X130.123 Y100.123 E.00762
;WIDTH:0.442543
G1 X130.251 Y100.168 E.00451
;WIDTH:0.469695
G1 X130.379 Y100.212 E.0048
;WIDTH:0.507039
G1 X130.721 Y100.231 E.01322
;WIDTH:0.544382
G1 X131.063 Y100.249 E.01428
G1 X139.921 Y100.249 E.36935
G1 X140.177 Y100.342 E.01136
G1 X140.233 Y100.533 E.0083
G1 X140.145 Y100.685 E.00732
G1 X139.958 Y100.751 E.00827
G1 X131.063 Y100.751 E.37089
G1 X130.582 Y100.705 E.02015
;WIDTH:0.515416
G1 X130.361 Y100.638 E.00907
;WIDTH:0.48075
G1 X130.14 Y100.571 E.00841
;WIDTH:0.446083
G1 X129.758 Y100.314 E.01543
;WIDTH:0.446554
G1 X129.454 Y99.902 E.01718
;WIDTH:0.48099
G1 X129.382 Y99.69 E.00816
;WIDTH:0.515425
G1 X129.31 Y99.477 E.00883
;WIDTH:0.544382
G1 X129.249 Y98.953 E.022
G1 X129.249 Y96.779 E.09065
G1 X129.229 Y96.486 E.01225
;WIDTH:0.502921
G1 X129.208 Y96.193 E.01124
;WIDTH:0.46146
G1 X129.187 Y95.9 E.01022
;WIDTH:0.419999
G1 X129.187 Y68.187 E.86892
G1 X140.313 Y68.187 E.34885
G1 X140.313 Y73.75 E.17442
G1 X140.313 Y95.797 E.69127
G1 X140.279 Y96.014 E.00689
G1 X140.174 Y96.135 E.00502
G1 X139.937 Y96.213 E.00782
G1 X130.379 Y96.213 E.29968
G1 X130.039 Y96.326 E.01123
;WIDTH:0.46146
G1 X129.943 Y96.477 E.00623
;WIDTH:0.502921
G1 X129.88 Y96.576 E.00449
M204 S1000
G1 X130.19 Y96.779 F10800
M204 S800
;TYPE:External perimeter
;WIDTH:0.419999
G1 F1200
G1 X130.19 Y99.621 E.08911
G1 X130.229 Y99.737 E.00384
G1 X130.379 Y99.81 E.00523
G1 X139.894 Y99.81 E.29834
G1 X140.294 Y99.882 E.01274
G1 X140.512 Y100.044 E.00852
G1 X140.65 Y100.283 E.00865
G1 X140.68 Y100.583 E.00945
G1 X140.593 Y100.843 E.0086
G1 X140.411 Y101.047 E.00857
G1 X140.275 Y101.109 E.00469
G1 X139.981 Y101.19 E.00956
G1 X131.019 Y101.19 E.281
G1 X130.442 Y101.116 E.01824
G1 X129.922 Y100.904 E.01761
G1 X129.474 Y100.567 E.01758
G1 X129.096 Y100.077 E.0194
G1 X128.884 Y99.558 E.01758
G1 X128.81 Y98.981 E.01824
G1 X128.81 Y67.81 E.97734
G1 X140.69 Y67.81 E.37249
G1 X140.69 Y73.75 E.18624
G1 X140.69 Y95.797 E.69127
G1 X140.636 Y96.157 E.01141
G1 X140.494 Y96.374 E.00813
G1 X140.255 Y96.536 E.00905
G1 X139.972 Y96.59 E.00903
G1 X130.379 Y96.59 E.30078
G1 X130.265 Y96.628 E.00377
G1 X130.217 Y96.725 E.00339
M204 S1000
;WIPE_START
G1 F8640
G1 X130.19 Y96.779 E-.01394
G1 X130.19 Y99.621 E-.65623
G1 X130.229 Y99.737 E-.02826
G1 X130.379 Y99.81 E-.03852
G1 X130.652 Y99.81 E-.06305
;WIPE_END
G1 Z.6 F720
G1 X140.143 Y69.125 F10800
G1 Z.2 F720
G1 E.8 F2100
M204 S800
;TYPE:Solid infill
;WIDTH:0.422879
G1 F1200
G1 X139.545 Y68.526 E.02674
G1 X139.007 Y68.526 E.017
G1 X139.974 Y69.493 E.04321
G1 X139.974 Y70.03 E.01697
G1 X138.47 Y68.526 E.0672
G1 X137.933 Y68.526 E.01697
G1 X139.974 Y70.567 E.09119
G1 X139.974 Y71.105 E.017
G1 X137.395 Y68.526 E.11523
G1 X136.858 Y68.526 E.01697
G1 X139.974 Y71.642 E.13922
G1 X139.974 Y72.18 E.017
G1 X136.32 Y68.526 E.16326
G1 X135.783 Y68.526 E.01697
G1 X139.974 Y72.717 E.18725
G1 X139.974 Y73.254 E.01697
G1 X135.246 Y68.526 E.21125
G1 X134.708 Y68.526 E.017
G1 X139.974 Y73.792 E.23529
G1 X139.974 Y74.329 E.01697
G1 X134.171 Y68.526 E.25928
G1 X133.634 Y68.526 E.01697
G1 X139.974 Y74.866 E.28327
G1 X139.974 Y75.404 E.017
G1 X133.096 Y68.526 E.30731
G1 X132.559 Y68.526 E.01697
G1 X139.974 Y75.941 E.3313
G1 X139.974 Y76.478 E.01697
G1 X132.022 Y68.526 E.3553
G1 X131.484 Y68.526 E.017
G1 X139.974 Y77.016 E.37934
G1 X139.974 Y77.553 E.01697
G1 X130.947 Y68.526 E.40333
G1 X130.41 Y68.526 E.01697
G1 X139.974 Y78.09 E.42732
G1 X139.974 Y78.628 E.017
G1 X129.872 Y68.526 E.45136
G1 X129.526 Y68.526 E.01093
M73 P4 R31
M73 Q4 S31
G1 X129.526 Y68.718 E.00607
G1 X139.974 Y79.165 E.4668
G1 X139.974 Y79.702 E.01697
G1 X129.526 Y69.255 E.4668
G1 X129.526 Y69.793 E.017
G1 X139.974 Y80.24 E.4668
G1 X139.974 Y80.777 E.01697
G1 X129.526 Y70.33 E.4668
G1 X129.526 Y70.867 E.01697
G1 X139.974 Y81.314 E.4668
G1 X139.974 Y81.852 E.017
G1 X129.526 Y71.405 E.4668
G1 X129.526 Y71.942 E.01697
G1 X139.974 Y82.389 E.4668
G1 X139.974 Y82.926 E.01697
G1 X129.526 Y72.479 E.4668
G1 X129.526 Y73.017 E.017
G1 X139.974 Y83.464 E.4668
G1 X139.974 Y84.001 E.01697
G1 X129.526 Y73.554 E.4668
G1 X129.526 Y74.091 E.01697
G1 X139.974 Y84.538 E.4668
G1 X139.974 Y85.076 E.017
G1 X129.526 Y74.629 E.4668
G1 X129.526 Y75.166 E.01697
G1 X139.974 Y85.613 E.4668
G1 X139.974 Y86.15 E.01697
G1 X129.526 Y75.703 E.4668
G1 X129.526 Y76.241 E.017
G1 X139.974 Y86.688 E.4668
G1 X139.974 Y87.225 E.01697
G1 X129.526 Y76.778 E.4668
G1 X129.526 Y77.315 E.01697
G1 X139.974 Y87.762 E.4668
G1 X139.974 Y88.3 E.017
G1 X129.526 Y77.853 E.4668
G1 X129.526 Y78.39 E.01697
G1 X139.974 Y88.837 E.4668
G1 X139.974 Y89.374 E.01697
G1 X129.526 Y78.927 E.4668
G1 X129.526 Y79.465 E.017
G1 X139.974 Y89.912 E.4668
G1 X139.974 Y90.449 E.01697
G1 X129.526 Y80.002 E.4668
G1 X129.526 Y80.539 E.01697
G1 X139.974 Y90.987 E.46682
G1 X139.974 Y91.524 E.01697
G1 X129.526 Y81.077 E.4668
G1 X129.526 Y81.614 E.01697
G1 X139.974 Y92.061 E.4668
G1 X139.974 Y92.599 E.017
M73 P5 R31
M73 Q5 S31
G1 X129.526 Y82.151 E.46682
G1 X129.526 Y82.689 E.017
G1 X139.974 Y93.136 E.4668
G1 X139.974 Y93.673 E.01697
G1 X129.526 Y83.226 E.4668
G1 X129.526 Y83.763 E.01697
G1 X139.974 Y94.211 E.46682
G1 X139.974 Y94.748 E.01697
G1 X129.526 Y84.301 E.4668
G1 X129.526 Y84.838 E.01697
G1 X139.974 Y95.285 E.4668
G1 X139.974 Y95.798 E.01621
G1 X139.968 Y95.817 E.00063
G1 X129.526 Y85.376 E.46653
G1 X129.526 Y85.913 E.01697
G1 X139.487 Y95.874 E.44506
M73 P5 R30
G1 X138.95 Y95.874 E.01697
G1 X129.526 Y86.45 E.42107
G1 X129.526 Y86.988 E.017
